X:1
T:Vingt-quatre Petites Pièces Progressives pour la Guitare
T:Vingt-quatre Petites Pièces Progressives pour la Guitare
T:Op. 44
T:Fernando Sor (tabbed by Classical Guitar Empire)
C:Fernando Sor (tabbed by Classical Guitar Empire)
%%score ( 1 2 3 4 )
L:1/8
M:4/4
K:C
V:1 tab stafflines=6 strings=E2,A2,D3,G3,B3,E4 nm="Guitar" snm="Guit."
V:2 tab stafflines=6 strings=E2,A2,D3,G3,B3,E4 
V:3 tab stafflines=6 strings=E2,A2,D3,G3,B3,E4 
V:4 tab stafflines=6 strings=E2,A2,D3,G3,B3,E4 
V:1
"^No. 1""^Andante" !1!E2 | !2!C2 !3!G,2 !4!E,2 !5!C,2 | !5!B,,!4!D,!3!G,!2!B, !2!D2 !1!F2 | %3
 !2!D2 !2!B,2 !3!G,2 !4!F,2 | !4!E,!3!G,!2!C!1!E !1!G2 !3!G,2 | !3!A,2 !2!C2 !2!D2 !1!F2 | %6
 !3!G,2 !2!B,2 !2!C2 !1!E2 | !2!D2 !3!A,2 !2!D2 !2!C2 | (!2!C!2!B,)!3!A,!3!G, !6!G,,2 !1!E2 | %9
 !2!C2 !3!G,2 !4!E,2 !5!C,2 | !5!B,,!4!D,!3!G,!2!B, !2!D2 !1!F2 | !2!D2 !2!B,2 !3!G,2 !4!F,2 | %12
 !4!E,!3!G,!2!C!1!E !1!G2 !3!G,2 | !3!A,2 !6!F,,2 !2!B,2 !6!G,,2 | !2!C2 !5!A,,2 !2!D2 !5!B,,2 | %15
 [!5!C,!1!E]2 [!4!E,!2!C]2 [!4!F,!2!D]2 [!3!G,!2!B,]2 | [!5!C,!2!C]2 !3!G,2 !5!C,2 !1!E2 | %17
 !2!D2 !3!G,2 !1!G2 !3!G,2 | !2!C2 !1!E2 !3!A,2 !2!C2 | !4!^F,2 !3!A,2 !4!D,2 !2!D2 | %20
 !2!C2 [!3!G,!2!B,]2 !6!G,,2 !2!D2 | !2!B,2 !3!G,2 !5!B,,2 !1!G2 | !1!E2 !3!G,2 !5!C,2 !1!E!2!C | %23
 [!4!D,!2!B,]2 !2!D2 !2!C2 !3!A,2 | !3!G,2 !4!D,2 !6!G,,2 !1!E2 | !2!C2 !3!G,2 !4!E,2 !5!C,2 | %26
 !5!B,,!4!D,!3!G,!2!B, !2!D2 !1!F2 | !2!D2 !2!B,2 !3!G,2 !4!F,2 | !4!E,!3!G,!2!C!1!E !1!G2 !3!G,2 | %29
 !3!A,2 !6!F,,2 !2!B,2 !6!G,,2 | !2!C2 !5!A,,2 !2!D2 !5!B,,2 | %31
 [!5!C,!1!E]2 [!3!A,!2!C]2 [!4!F,!2!D]2 [!3!G,!2!B,]2 | !2!C2 [!4!E,!3!G,]2 x4 |] %33
[M:2/4]"^No. 2""^Allegretto"[Q:1/4=126] !6!x!3!G, !4!E,!2!C | !3!G,!1!E !2!C2 | %35
 !6!x!3!G, !4!E,!2!C | !3!G,!1!E !2!C2 | !4!x!1!F !2!D2 | !4!x!1!E !2!C2 | !3!B,!2!D !3!C!1!E | %40
 !2!D!3!B, !3!G,2 |!p! !6!x!3!G, !4!E,!2!C | !4!x!1!E !2!C2 | !6!x!3!G, !5!x!2!C | !4!x!1!E !2!C2 | %45
 !4!x!1!F !2!D2 | !4!x!1!E !2!C2 | !5!x!2!D !4!x!2!B, | !2!C2 x2 ||!mf! !4!x!2!B, !5!x!2!B, | %50
 !4!x!2!C- !2!x2 | !4!x!2!B, !5!x!2!B, | !4!x!2!C- !2!x2 | !4!x!2!B, !6!x!2!D | %54
 !6!x!1!E !3!x!3!A, | !5!x!2!C !3!A,!4!^F, | !3!G,4 | !6!x!3!G, !5!x!2!C | !4!x!1!E !2!C2 | %59
 !6!x!3!G, !5!x!2!C | !4!x!1!E !2!C2 | !4!x!1!F !2!D2 | !4!x!1!E !2!C2 | !2!B,!2!D !2!C!1!E | %64
 !2!D!2!B, !3!G,2 | !6!x!3!G, !4!E,!2!C | !4!x!1!E !2!C2 | !6!x!3!G, !4!E,!2!C | !4!x!1!E !2!C2 | %69
 !4!x!1!F !2!D2 | !4!x!1!E !2!C2 | !5!x!2!D !4!x!2!B, | !2!C4 |] %73
[M:3/4]"^No. 3"!p!"^Andantino"[Q:1/4=118] !4!E,2 !3!G,2 !2!C2 | (!2!C2 !2!B,2) !2!D2 | %75
 !2!C2 !3!G,2 !1!E2 | !2!D6 | !2!C2 !1!E2 !1!G2 | !3!A,2 !2!D2 !1!F2 | !2!B,2 !2!C2 !1!E2 | %80
 !2!D3 !2!B, !3!G,2 |!mp! !3!G,2 !4!E,2 !2!C2 | (!2!C2 !2!B,)!3!G, !2!D2 | %83
 (!2!D!2!C) !3!G,!2!C !1!E2 | !2!D4!mf! !2!^D2 | !1!E2 !2!B,2 !2!C2 | !3!A,2 !2!D2 !1!E2 | %87
 !1!F2 !3!A,2 !2!B,2 | !2!C4 x2 |!mf! !2!D2 !3!G,2 !3!G,2 | !3!G,2 !1!E4 | !1!E2 !2!D2 !3!A,2 | %92
 !2!C2 !2!B,!4!D, !3!G,!2!B, | !2!D2 !3!G,2 !1!G2- | !1!x2 !1!^F!1!E !2!C!3!A, | %95
 !3!G,!2!B, !2!D!2!C !3!A,!4!^F, | !3!G,4!f! !4!=F,2 | !4!E,2 !3!G,2 !2!C2 | %98
 (!2!C!2!B,) !3!G,2 !2!D2 | (!2!D!2!C) !3!G,2 !1!E2 | !2!D6 | !2!C2 !1!E2 !1!G2 | %102
 !3!A,2 (!1!F!1!E) !2!D!2!C | !2!B,2 !2!C2 !1!E2 | !2!D3 !2!B, !3!G,2 |!mf! !3!G,2 !4!E,2 !2!C2 | %106
!f! (!2!C2 !2!B,)!3!G, !2!B,!2!D |!ff! !2!D2 !2!C!3!G, !2!C!1!E | !2!D4 !2!^D2 | %109
 !1!E2 !2!B,2 !2!C2 | !3!A,!2!B, !2!C!2!^C !2!D!1!E | !1!G!1!F !3!A,2 !2!B,2 | !2!C6 |] %113
[M:2/4]"^No. 4"!mf!"^Allegretto moderato"[Q:1/4=120] !3!G, | !2!C3 !2!B, | !3!A,3 !2!D/!2!C/ | %116
 !2!B, !1!F2 !2!D/!2!B,/ | !2!C!2!D !1!E!3!G, | !2!C3 !1!E | !2!D3 !1!G | %120
 !1!^F>!1!E (!2!D/!2!C/)!3!A,/!4!^F,/ | !3!G, x x !3!G, :: !1!G3 !1!A | !1!G !1!F2 !2!D | %124
 (!1!F/!1!E/)!2!D/!2!C/ !2!B,/!3!A,/!1!E/!2!D/ | !2!C2 !2!B,!3!G, | !2!C3 !2!^C | !2!D3 !2!D | %128
 !2!D2- !2!x/!3!A,/!2!D/!2!C/ | !2!B,2 x !3!G, | !2!C3 !2!B, | !3!A,!2!B,/!2!C/ !2!D!2!C | %132
 !2!B, !1!F2 !2!D/!2!B,/ | !2!C!2!D !1!E!2!C | !1!G3 !1!E/!2!C/ | !3!A,3 !2!D | %136
 !4!x/>!2!C/ !1!E2 !2!D/!2!B,/ |1 !2!C2 x !3!G, :|2 !2!C2 x |] %139
[M:3/8]"^No. 5""^Andantino"[Q:3/8=56] !1!E/!2!C/!3!G,!3!G, | !3!G,3 | !1!F/!2!D/!3!G,!3!G, | %142
 !3!G,3 | !3!G,/!2!C/!1!E!1!E | !1!E!3!A,!1!F- | !1!x!2!B,!2!C | !2!D/!2!B,/!3!G,!1!G | %147
 !1!E/!2!C/!3!G,!3!G, | !3!G,3 | !1!F/!2!D/!3!G,!3!G, | !3!G,3 | !3!G,/!2!C/!1!E!1!E- | %152
 !1!x/!3!A,/!2!D/!1!E/!1!F- | !1!x!2!B,/!2!C/!2!D/!2!B,/ | !2!C x !3!G, | !2!D2 !2!D | !1!E2 !1!E | %157
 (!1!G/!1!F/)(!1!E/!1!F/)!2!D/!2!B,/ | !2!C/!1!E/!3!G,!3!G, | !2!D2 !2!D |!f! !1!E2 !1!E | %161
 !1!^F2 !1!F | [!2!B,!1!G]2!mf! x | !2!D2 !2!D | !1!E2 !1!E | (!1!G/!1!F/)(!1!E/!1!F/)!2!D/!2!B,/ | %166
 !2!C/!1!E/!3!G,!3!G, | !2!D2 !2!D |!f! !1!E2 !1!E | !1!^F2 !1!F | [!2!B,!1!G]2!mf! !3!G, | %171
 !1!E/!2!C/!3!G,!3!G, | !3!G,3 | !1!F/!2!D/!3!G,!3!G, | !3!G,3 | !3!G,/!2!C/!1!E!1!E | %176
 !1!E!3!A,!1!F- | !1!x(!2!B,/!2!D/)!2!C/!1!E/ | !2!D/(!2!^C/!2!D/)!2!B,/!3!G, | %179
 !1!E/!2!C/!3!G,!3!G, | !3!G,3 | !1!F/!2!D/!3!G,!3!G, | !3!G,3 | !6!x/!4!E,/!3!G,/!2!C/!1!E | %184
 !5!x/!3!A,/!2!D/!1!E/!1!F | !6!G,,[!3!G,!2!B,][!4!F,!2!B,] | [!4!E,!2!C]3 |] %187
[K:G][M:3/4]"^No. 6""^Moderato"[Q:1/4=120] !1!G2 | !2!D2 !2!B,2 !3!G,2 | %189
 !4!D,2 !5!B,,2 !6!G,,!5!A,, | !5!B,,!5!C, !4!D,!4!E, !4!F,!3!G, | !3!A,!2!B, !2!C!2!D !1!E2 | %192
 !2!C2 !3!A,2 !4!F,2 | !4!x!2!B, !5!x!3!G, !6!x!4!D, | !6!x!4!E, !5!A,,2 !4!D,2 | %195
 !6!G,,2 x2!mp! !2!B,2 | !2!B,2 !4!^D,!4!F, !2!B,!3!A, | !3!G,!4!E, !3!G,!2!B, !1!E!1!G | %198
 !1!F!2!^D !2!B,!3!A, !4!F,!2!B, | !3!G,2 !4!E,2!mf! !2!B,2 | !3!A,!5!A,, !5!^C,!4!E, !3!A,!3!G, | %201
 !4!F,!3!A, !2!D!3!A, !4!F,!3!A, | !3!G,!2!B, !4!E,!3!G, !5!^C,!4!E, | !4!D,2 !2!D2 !4!D,!4!E, | %204
 !4!F,!3!G, !3!A,!3!B,!>(! !3!C!3!B, | !3!A,!3!G, !4!F,!4!E, !4!D,!5!C, | %206
 !5!B,,!4!D, !5!C,!5!B,, !5!A,,!6!G,, | !6!F,,!5!A,,!pp! !4!D,2!>)!!mf! !2!D!>(!!1!E | %208
 !2!F!2!G !2!A!1!B !1!c!1!B | !2!A!2!G !2!F!1!E !2!D!2!C | %210
 !2!B,!>)!!pp!!<(!!2!D !2!^C!1!E !1!G!2!C | !2!D2 !4!D,2!<)!!mf! !4!x!1!G | %212
 !5!x!2!D !6!x!2!B, !6!G,,!3!G, | !4!D,2 !5!B,,2 !6!G,,!5!A,, | !5!B,,!5!C, !4!D,!4!E, !4!F,!3!G, | %215
 !3!A,!2!B, !2!C!2!D !1!E2 | !2!C2 !3!A,2 !4!F,2 | !4!x!2!B, !5!x!3!G, !6!x!4!D, | %218
 !6!x!4!E, x2 [!2!C!1!F]2 | [!6!G,,!2!B,!1!G]4 x2 |] %220
[M:2/4]"^No. 7""^Andante"[Q:1/4=76] !2!B,/>!3!G,/ | %221
[Q:1/4=120]"^Allegro" !4!D,[!3!G,!2!B,] [!3!A,!2!C][!3!^A,!2!^C] | !2!D2 !2!B,2 | !2!C2 !2!B,2 | %224
 !3!A, !2!D3 | !4!D,[!3!G,!2!B,] [!3!A,!2!C][!3!^A,!2!^C] | !2!D2 !2!B,!1!E | %227
 [!4!F,!3!A,]!2!D- (!2!x/!2!^C/)!2!B,/!2!C/ | [!4!F,!2!D]2 x :: !2!D/!2!^C/ | %230
 !2!=C!1!F [!2!C!1!F][!2!C!1!F] | [!2!B,!1!G]2 [!3!B,!2!D][!3!C!2!E]/>[!3!B,!2!D]/ | %232
 !2!C!1!F [!2!C!1!F][!2!C!1!F] | [!2!B,!1!G]2 [!3!B,!2!D][!3!B,!2!D]/>[!3!A,!2!C]/ | %234
 !2!B,!1!E !2!B,!1!E | !2!D!3!^G, [!3!A,!2!C][!3!A,!2!C]/>[!3!=G,!2!B,]/ | !3!A,!2!D !3!A,!2!D | %237
 !2!C2 [!3!G,!2!B,][!3!G,!2!B,]/>[!3!A,!2!C]/ | [!3!B,!2!D][!3!C!2!E] [!2!D!1!F][!2!B,!1!G] | %239
 [!2!C!1!E]3 [!3!A,!2!C] | [!3!G,!2!B,][!3!B,!2!D] [!3!A,!2!C][!4!F,!3!A,] | %241
 !3!G,[!4!D,!2!B,] !6!G,,2 :|[M:2/4]"^No. 8""^Allegretto"[Q:1/4=126] !2!D!1!G !2!B,!2!C | %243
 !2!D!1!G !2!B,!2!C | !2!D!1!G !2!B,!2!C | !2!E2 !2!D x | !1!G2 !1!F2 | !1!E2 !2!D!2!B, | %248
 !2!C2 !2!B,2 | !3!A,2 !2!D!2!D | !2!D!1!G !2!B,!2!C | !2!D!1!G !2!B,!2!C | !2!D!1!G !2!B,!2!C | %253
 !2!E2 !2!D x | !1!G2 !1!F2 | !1!E2 !2!D!2!B, | [!3!A,!2!C]3 [!4!F,!3!A,] | [!3!G,!2!B,]2 x2 | %258
 !3!A,3 !2!D | !2!B,3 !2!D | !2!^C3 !1!E | !2!D2 !3!A,2 | !3!A,3 !2!D | !2!B,3 !2!D | !2!^C3 !1!E | %265
 !2!D2 x2 | !2!E3 !2!^D | !2!E3 !2!=D | !2!C2 !2!B,2 | !2!C2 !2!^C2 | !2!D3 !2!=C | !2!B,3 !2!D | %272
 !2!C2 !2!B,2 | !3!A,!2!B, !2!C!2!^C | !2!D!1!G !2!B,!2!=C | !2!D!1!G !2!B,!2!C | %276
 !2!D!1!G !2!B,!2!C | !2!E2 !2!D x | !1!G2 !1!F2 | !1!E2 !2!D!2!B, | !2!C2 !2!B,2 | %281
 !3!A,2 !2!D!2!D | !2!D!1!G !2!B,!2!C | !2!D!1!G !2!B,!2!C | !2!D!1!G !2!B,!2!C | !2!E2 !2!D x | %286
 !1!G2 !1!F2 | !1!E2 !2!D!2!B, | [!3!A,!2!C]3 [!4!F,!3!A,] | [!3!G,!2!B,]2 x2 |] %290
[M:4/4]"^No. 9"!p!"^Andantino"[Q:1/4=86] !2!B,2 !2!B,2 !2!C2 !2!C2 | !2!D4 !1!E4 | %292
 [!4!F,!3!A,]2 [!3!G,!2!B,]2 [!3!A,!2!C]2 [!4!F,!2!D]2 | [!3!G,!2!B,]4 x4 | %294
!mf! !2!B,2 !2!B,2!f! !2!^C2 !2!C2 | [!3!A,!2!D]4 [!2!B,!1!E]4 | %296
!>(! !1!F2 !2!D2 !1!E2 !2!^C2!>)! |1!p! [!4!F,!2!D]2 x2 x4 :|2!p! [!4!F,!2!D]4 x4 |: %299
!mp! !2!D2 [!3!B,!2!D]2 !1!E2 !2!B,2 | !2!C4 !3!A,4 | !2!B,2 !2!B,2 !2!C2 !2!B,2 | %302
 !3!A,2!<(! !2!D2 !2!^C2 !2!=C2 | [!3!G,!2!B,]2 [!3!G,!2!B,]4 [!3!G,!2!B,]2!<)! | %304
!ff! !2!C2 !1!E2 !1!G2 [!3!^A,!2!^C]2 | %305
!>(! [!3!B,!2!D]2 [!3!G,!2!B,]2 [!3!A,!2!C]2 [!4!F,!3!A,]2!>)! |1 %306
!mp! !3!G,2 !4!D,2 !3!G,2 !2!B,2 :|2!mp! !3!G,2!p! [!3!G,!2!B,]2 x4 || %308
[M:6/8]!mf!"^No. 10""^Allegretto"[Q:3/8=80] !2!D2 !2!D | !1!G2 !1!G{/!1!G} !1!F!1!E!1!F | %310
 !1!G2 !1!G !2!B,2 !2!B, | !2!C2 !2!C !2!C!2!D!2!C | !2!B,2 x !2!D2 !2!D | %313
 !1!G2 !1!G{/!1!G} !1!F!1!E!1!F | !1!G2 !1!G !1!F2 !1!F | !1!E2 !1!E{/!2!D} !2!^C!2!B,!2!C | %316
 [!4!F,!2!D]2 x :: !2!D2 !2!D | !2!C2 !1!F{/!1!G} !1!F!1!E!1!F | !1!G2 !2!D !2!D2 !2!D | %320
 !2!C2 !1!F{/!1!G} !1!F!1!E!1!F | !1!G2 x !1!B2 !1!B | !2!B,2 !2!B, !1!F2 !1!F | %323
 !1!G2 !1!G !1!E2 !1!E | [!3!B,!2!D]2 [!3!^A,!2!^C!1!E]{/!1!G} !1!F!1!E!1!F | !1!G2 x :| %326
 !3!G,2 !3!G, | x2 !1!E !1!E2 !1!E | !2!D3 x x2 | x2 !1!E !1!E2 !1!E | !2!D2 x !1!G3 | %331
 !1!F3 !1!=F3 | !1!E2 x [!2!C!1!E]3 | [!3!B,!2!D]2 x [!3!C!2!F]2 x | %334
 [!2!B,!1!G]2 x!f! [!2!B,!1!G]3 | [!2!B,!1!G]3 [!2!B,!1!G]3 |!ff! [!2!B,!1!G]6 |] %337
[M:4/4]"^No. 11"!p!"^Andante"[Q:1/4=100] !2!B,2 !1!E2 !2!C2 !1!E2 | !2!B,2 !1!E>!1!F !1!G2 !2!B,2 | %339
 !1!F2 !2!B,2 !1!F2 !2!B,2 | !1!G7/2 !1!F/ !1!E2 x2 |!mp! !2!B,2 !1!E2 !2!C2 !1!E2 | %342
 !2!B,2 !1!E>!1!F !1!G2!mf! !2!B,2 | (!1!G2 !1!F2) [!3!A,!1!F]2 [!3!G,!1!E]2 | %344
 !2!^D2!p! !2!B,2 x2 x2 ::!<(! [!3!G,!2!B,]2 [!3!A,!2!C]2 [!3!B,!2!D]2 [!2!B,!1!G]2!<)! | %346
!f! !1!G4 !1!F4 | !1!E2 !1!G2 !1!F2 !1!E2 | !1!E4!mp! !2!^D2 x2 | %349
!<(! !2!B,2 !2!B,2 !2!B,2 !2!B,2!<)! |!ff! !2!B,7/2 !1!E/ !1!G4 |!f! (!1!G2 !1!F2) !1!E2 !2!^D2 | %352
 [!3!G,!1!E]4 x4 :|[M:6/8]"^No. 12"!mf!"^Andantino"[Q:3/8=60] !2!B, | !2!B,2 !1!E !1!E2 !2!B, | %355
 !2!B,2 !1!F !1!F2 !2!B, | !1!G2 !2!^D !1!E2 !1!F | !1!E3 !2!^D2 !2!B, | !2!B,2 !1!E !1!E2 !2!B, | %359
 !2!B,2 !1!F !1!F2 !2!B, | !2!B,!1!G!1!F (!1!F!1!E)!2!^D | [!3!A,!1!F]3 [!4!E,!3!G,!1!E]2 |: %362
 !2!B, | !2!B,2 [!2!F!1!A] [!2!F!1!A]2 !2!B, | !2!B,2 [!1!E!2!G] [!1!E!2!G]2 !2!B, | %365
 !2!C2 !1!F (!1!F!1!G)!1!E | !1!E3 !2!^D2 !2!B, | !2!B,2 !1!E !1!E[!2!^D!1!F][!2!=D!1!^G] | %368
 !1!^G3 !1!A2 [!3!A,!2!C!1!F] | !1!E>!2!B,!1!E/!1!F/ !1!G2 !1!F | %370
 [!3!A,!1!F]3 [!4!E,!3!G,!1!E]2!fine! ::[K:E]!p! !2!B, | %372
 [!4!E,!3!G,]2 [!4!F,!3!A,] [!3!G,!2!B,]2 [!3!G,!2!^B,] | %373
 [!3!A,!2!C]2 [!3!B,!2!D] [!2!C!1!E]2 [!2!D!1!F] | %374
!mp! [!2!E!1!G][!3!D!2!F][!3!C!2!E] [!3!^B,!2!D][!3!C!2!E][!3!A,!2!C] | %375
 [!3!G,!2!=B,]3 [!4!E,!3!G,]2!mf! [!3!G,!2!B,] | !3!G,2 !2!B, !1!E!2!B,!f!!1!G | %377
 [!2!D!1!F]2 [!3!B,!2!D] [!2!D!1!F]2 [!3!B,!2!D] | %378
!>(! [!3!^A,!2!C]2 [!3!B,!2!D] [!2!C!1!E]2 [!3!A,!1!F]!>)! |!p! [!3!B,!2!D]3 x2 :: !2!B, | %381
!mf! !1!G2 !1!F !1!G2 !1!F | !3!F>!1!E!2!D/!2!C/ !2!B,2 !2!B, | !1!G2 !1!F !1!G2 !1!F | %384
 !1!F>!1!E!2!D/!2!C/ !2!B,2 [!4!E,!3!G,] | %385
 [!4!F,!3!A,][!3!G,!2!B,][!3!A,!2!C] [!3!B,!2!D][!2!C!1!E][!2!D!1!F] | %386
 [!2!E!1!G][!2!F!1!A][!2!^^F!1!^A] [!2!G!1!B] x [!2!B,!1!G] | !1!G!1!F!1!A !1!A!2!D!1!F | %388
 [!3!A,!1!F]3 [!4!E,!3!G,!1!E]2!D.C.! :| %389
[K:G][M:3/8]"^No. 13""^Allegretto"[Q:3/8=72] !2!B,{/!1!F}!1!E/!2!^D/!1!E | !2!B,!1!E/!1!F/!1!G | %391
 !1!F!2!B,!1!F | !1!A/!1!G/!1!F/!1!G/!1!E | !2!B,{/!1!F}!1!E/!2!^D/!1!E | !2!B,!1!E/!1!F/!1!G | %395
 [!4!E,!1!E][!5!C,!2!C][!5!^A,,!3!^A,] | !3!B,!2!B,!2!B, :: %397
 !2!B,[!2!F!1!A]/[!2!^E!1!^G]/[!2!F!1!A] | !2!B,[!2!E!1!G]/[!2!^D!1!F]/[!2!E!1!G] | %399
 !2!B,[!3!A,!1!F][!3!G,!1!E] | !1!E!2!^D!2!B, | !2!B,[!2!F!1!A]/[!2!^E!1!^G]/[!2!F!1!A] | %402
 !2!B,{/!1!A}[!2!E!1!G]/[!2!^D!1!F]/[!2!E!1!G] | [!2!C!1!F]2 [!3!A,!2!^D] |1 %404
 [!3!G,!1!E] x !2!B, :|2 [!3!G,!1!E]2 x!fine! |:[K:E] !2!B,(!1!G/!1!F/)!1!E | !2!C!1!A/!1!G/!1!F | %408
 !2!D!1!B!1!A | (!1!A!1!G)!1!E | !2!B,(!1!G/!1!F/)!1!E | !2!C!1!A/!1!G/!1!F | !2!D!1!B!2!D | %413
 [!3!G,!1!E]2 x!D.C.! :|[K:D][M:3/4]"^No. 14""^Tempo di minuetto, moderato"[Q:1/4=130] !5!A,,2 | %415
 !5!D,!4!F, !3!A,2 !2!D2 | !2!B,2 !3!G,2 !1!G!1!E | !2!C2 !5!A,,2 !1!A!1!G | %418
 !1!F2 !4!D,2 !1!F!1!E | !2!D!2!C !2!B,!3!A, !3!^G,!4!F, | !5!x!3!^G, !2!B,!1!E{/!1!^G} !1!F!1!E | %421
 !1!E!3!A, !2!B,!2!D !3!^G,!2!B, | !3!A,4 !1!E!2!C | !4!x!2!C !1!E!2!C !1!E!2!C | %424
 !4!x!2!D !1!F!2!D !1!F!2!D | !2!B,!2!D !4!x!2!B, !1!E!2!D | !2!C!1!E x2 !1!E!2!C | %427
 !4!x!2!C !1!E!2!C !1!G!1!E | !2!D!1!F !4!x!2!D !1!F!2!D | !2!B,!2!D !1!=F!2!B, !2!D!3!^G, | %430
 !3!A,2 !5!A,,2 !3!A,2 | !5!D,!4!F, !3!A,!2!D !1!F!2!D | !2!B,!2!D !3!G,2 !1!G!1!E | %433
 !2!C!1!E !5!A,,2 !1!A!1!G | !1!F2 !4!D,2 !1!A!1!G | !1!F!1!E !2!^D!1!F !2!B,!3!A, | %436
 !3!G,!2!B, !4!E,2 !1!G!1!F | !1!E!2!D !2!C!1!E !3!A,!3!G, | !4!F,!4!E, !4!D,2 !1!F!1!E | %439
 !2!D!2!C !2!B,!3!A, !3!G,!4!F, | !4!E,!4!D, !5!C,!5!B,, !5!A,,!6!G,, | %441
 !6!F,,!4!D, !6!G,,!4!E, (!5!A,,!5!C,) | !4!D,4 x2 |] %443
[M:2/4]"^No. 15""^Andante"[Q:1/4=80] !1!A/!1!G/ | !1!F!1!E !2!D!2!C | !2!B,!3!A, !3!G,!4!F, | %446
 !4!E,!4!F,/!3!G,/ !3!A,!3!G, | !4!F,!4!E, !4!D,!5!A,, | !5!D,!4!F,/!3!A,/ !2!D!1!F | %449
 !1!E!1!A/!1!^G/ !1!F/!1!E/!2!D/!2!C/ | !2!B,/!3!A,/!3!^G,/!4!F,/ !4!E,/!4!D,/!5!C,/!5!B,,/ | %451
 !5!A,,[!2!C!1!A] !5!A,, :| !1!A/!1!G/ | !1!F!1!E !2!^D2 | !1!E!1!F !1!G!1!G/!1!F/ | %455
 !1!E!2!D !2!C2 | !2!D!1!E !1!F!2!D/!2!C/ | !2!B,!1!E/!2!D/ !2!C!2!B, | !3!^A,!2!C !1!F!3!A, | %459
 !2!B,/!1!E/!1!G/!1!F/ !1!E/!2!D/!2!C/!2!B,/ | !3!^A,!2!C !1!F!3!A, | !2!B,!1!F !2!D!2!B, | %462
 !2!=C!1!E !1!G!1!E | !2!^D!1!F !1!A!2!D |{/!1!F} !1!E/!2!^D/!1!E/!1!F/ !1!G!1!B/!1!A/ | %465
 !1!G/!2!F/!2!E/!2!D/ !2!C!2!C | !2!D3 !2!D | !1!E/!2!^D/!1!E/!1!F/ !1!E/!2!B,/!1!E/!2!=D/ | %468
 (!2!D/!2!C/)!2!B,/!3!A,/ !3!A,!f!!1!A/!1!G/ | !1!F!1!E !2!D!2!C | !2!B,!3!A, !3!G,!4!F, | %471
 !4!E,!4!F,/!3!G,/ !3!A,!3!G, | !4!F,!4!E, !4!D,!2!D/!2!C/ | !2!B,!1!E !2!C!1!F/!1!E/ | %474
 x3 !1!A/!1!G/ |!ff! [!2!D!1!F][!3!B,!2!D] [!3!G,!1!E][!5!A,,!3!G,!2!C] | [!5!D,!4!F,!2!D]2 x2 |] %477
[M:2/4]"^No. 16"!mf!"^Andante"[Q:1/4=76] !3!A, | !1!F!2!D !3!A,!3!^A, | !2!B, !1!E2 !2!D | %480
 !2!C!1!A/>!2!C/ !2!D[!2!D!1!F] | [!2!D!1!F]2 [!2!C!1!E]!3!A, | !1!F!2!D !2!B,!3!^G, | %483
 !3!A,/!2!B,/!2!C/!2!D/ !2!^D/!1!E/{/!1!G}!1!F/!1!E/ | %484
 !1!E/!2!^D/!2!=D/!2!B,/ !3!A,/!3!^G,/!2!D/!2!B,/ | !3!A,2 x ::!p! !3!A, | !2!C3 !1!E | %488
 !2!D3!mf! !1!F | !1!E!1!G !1!F!2!D | !2!D/>!2!C/!1!E/>!2!C/ !3!A,!p!!1!A | !2!C3 !1!E | %492
 !2!D3 !2!D |!mp! !1!^G3 !1!G |!mf! !1!A2 x !3!A, | !1!F!2!D !3!A,!3!^A, | %496
 !2!B,!1!G/>!1!F/ !1!E!2!D | !2!C!1!A/>!2!C/ !2!D[!2!D!1!F] | [!2!D!1!F]2 [!2!C!1!E][!2!=C!1!F] | %499
 !1!G!1!G/>!1!F/ !1!^E2 | !1!F!1!F/>!1!=E/ !2!^D2 | x !1!E/!2!D/ (!2!D/!2!C/)!2!B,/!2!C/ | %502
!<(! !2!D!1!E !1!F!1!G!<)! |!ff! !1!A3 !1!A | (!1!A/!1!G/)!1!F/!1!E/ (!2!^D/!2!E/)!2!B,/!1!E/ | %505
!>(! !1!E !2!D2 !2!C!>)! |!mf! [!4!F,!2!D]2 x2 :| %507
[K:F][M:3/4]"^No. 17""^Cantabile"[Q:1/4=80]!p! !3!A,2 !1!F2 !1!E2 | !1!E2 !2!D2 !3!A,2 | %509
 !3!B,2 !1!E3 !2!D | !2!D2 !2!^C!1!E !3!A,2 | x2!mf! !1!F3 !1!E | %512
 [!3!G,!1!E]2 [!4!F,!2!D]2 [!4!E,!2!_D]2 | [!4!F,!2!C]2 [!4!F,!2!D]2 [!3!B,!1!E]2 | %514
 [!3!A,!1!F]2 x4 | !3!A,2 !1!F2 !1!E2 | !1!E2 !2!D2 !3!A,2 | !3!B,2 !1!E3 !2!D | %518
 !2!D2 !2!^C!1!E !3!A,2 | x2!mf! !1!F3 !1!E | [!3!G,!1!E]2 [!4!F,!2!D]2 [!4!E,!2!_D]2 | %521
!>(! [!4!F,!2!C]2 [!4!F,!2!D]2 [!3!B,!1!E]2 | [!3!A,!1!F]2!>)! x4 |!mf! !2!C2 !1!F2 !1!A2 | %524
 !1!A>!1!^G !1!=G2 x2 |{!1!G} !1!F2 !1!E2 !2!D2 | !2!D2 !2!^C>!1!E !3!A,2 | %527
 [!5!A,,!2!^C!1!A] x [!5!=B,,!2!D!1!^G] x [!5!^C,!2!E!1!=G] x | [!2!D!1!F]2 !2!^C2 !2!D2 | %529
 !2!F2 !2!E2 !2!^C2 | [!5!D,!4!F,!2!D] x !3!A,>!4!F, !4!D,2 |!f! !2!C2 !1!F2 !1!A2 | %532
 !1!A>!1!^G !1!=G2 x2 |{!1!G} !1!F2 !1!E2 !2!D2 | !2!D2 !2!^C>!1!E !3!A,2 | %535
!ff! [!5!A,,!2!^C!1!A] x [!5!=B,,!2!D!1!^G] x [!5!^C,!2!E!1!=G] x | [!2!D!1!F]2 !2!^C2 !2!D2 | %537
 !2!F2 !2!E2 !2!^C2 | [!5!D,!4!F,!2!D] x!p! !3!A,>!4!F, !4!D,2 |] %539
[K:D][M:4/4]!mf!"^No. 18""^Marche"[Q:1/4=130] !2!D2 !3!A,>!3!A, !2!D2 !1!F2 | %540
 !1!A2"^harm." !4!x2 !3!x2 !2!x2 | [!2!F!1!A]2 [!2!D!1!F]>!1!F !2!D2 [!2!D!1!F]2 | %542
 [!2!C!1!E]2"^harm." !4!x2 !1!x2 !1!x2 | !2!D2 !3!A,>!3!A, !2!D2 !1!F2 | %544
 !1!A2"^harm." !4!x2 !3!x2 !2!x2 | !1!E2 !1!A>!1!A [!2!B,!1!^G]2 [!3!D!1!B]2 | %546
 [!3!C!1!A]2"^harm." !4!x2 !5!x2 x2 :: [!2!F!1!A]2 [!2!F!1!A]>!1!B !1!A2 [!2!^D!1!F]2 | %548
 [!2!E!1!G]2"^harm." !5!x>!1!x !1!x2 !1!G2 | [!2!D!1!F]2 [!2!F!1!A]2 [!2!E!1!G]2 [!2!D!1!F]2 | %550
 [!2!C!1!E]2 !1!A>!1!A !1!A2 !1!A2 | !1!A2"^harm." !2!x>!3!x !4!x2 !1!A2 | %552
 [!2!E!1!G]2"^harm." !5!x>!1!x !1!x2 !1!G2 | [!2!D!1!F]2 [!3!A,!1!A]2 [!4!F,!1!F]2 [!4!D,!2!D]2 | %554
 !1!A2 !3!A,>!3!A, !3!A,2 x2 |!f! !2!D2 !3!A,>!3!A, !2!D2 [!3!A,!1!F]2 | %556
 !2!D2 !3!A,>!3!A, !2!D2 [!3!A,!1!F]2 | !4!D,2 [!4!F,!2!D]2 [!3!G,!2!C!1!E]2 [!3!A,!2!=C!1!F]2 | %558
 !1!G2 x2"^harm."!ff! !4!x4 |!mf!!<(! [!1!E!2!G]2 [!2!G!1!c]>[!2!G!1!c] !1!c2 [!2!G!1!c]2!<)! | %560
!ff! [!2!F!1!d]2 [!2!F!1!A]4 [!2!D!1!F]2 | !1!E2 !1!F>!1!G !2!B,2 [!3!G,!2!C]2 | %562
 [!5!D,!4!F,!2!D]2 [!5!A,,!4!F,!2!D]2 [!5!D,!4!F,!2!D]2 x2 :| %563
[M:6/8]"^No. 19"!mf!"^Allegretto"[Q:3/8=78] [!5!D,!4!F,!3!A,]x[!5!D,!4!F,!3!A,] [!5!D,!4!F,!3!A,]2 [!4!F,!3!A,!2!D] | %564
 [!4!F,!3!A,!2!D]2 [!3!A,!2!D!1!F] [!3!A,!2!D!1!F]2 [!2!F!1!A] | !1!A3{/!1!G} !1!F>!1!E!1!F | %566
 [!2!E!1!G]2 [!2!D!1!F] [!3!A,!1!E]2 x | %567
 [!4!F,!3!A,]x[!5!D,!4!F,!3!A,] [!5!D,!4!F,!3!A,]2 [!4!F,!3!A,!2!D] | %568
 [!4!F,!3!A,!2!D]2 [!3!A,!2!D!1!F] [!3!A,!2!D!1!F]2 [!2!F!1!A] | !1!A2 !1!F !1!E>!1!F!1!E | %570
 !2!Dx!2!D !2!D2 x :| !1!Ex!1!E !1!E2 !1!A | !1!E2 !1!A !1!E2 !1!A | %573
{/!1!A} !1!^G>!1!F!1!G !1!E!1!F!1!G | !1!A3 !1!E3 | !1!E2 !1!E !1!E2 !1!A | !1!E2 !1!A !1!E2 !1!A | %577
{/!1!A} !1!^G>!1!F!1!G !1!E!1!F!1!G | !1!A3!f!"^harm." !4!x3 || %579
!mf! [!5!D,!4!F,!3!A,]x[!5!D,!4!F,!3!A,] [!5!D,!4!F,!3!A,]2 [!4!F,!3!A,!2!D] | %580
 [!4!F,!3!A,!2!D]2 [!3!A,!2!D!1!F] [!3!A,!2!D!1!F]2 [!2!F!1!A] | !1!A3 !1!F>!1!E!1!F | %582
 [!2!E!1!G]2 [!2!D!1!F] [!3!A,!1!E]2 x | %583
 [!5!D,!4!F,!3!A,]x[!5!D,!4!F,!3!A,] [!5!D,!4!F,!3!A,]2 [!4!F,!3!A,!2!D] | %584
 [!4!F,!3!A,!2!D]2 [!3!A,!2!D!1!F] [!3!A,!2!D!1!F]2 [!2!F!1!A] | !1!A2 !1!F !1!E!1!F!1!E | %586
 !2!D2 !2!D !2!D2 x!fine! |:!p! [!4!G,!3!B,!2!D]3 [!3!G,!2!B,][!3!A,!2!=C][!3!^A,!2!^C] | %588
 !2!D3 !1!G3 |{/!1!G} !1!F>!1!E!1!F !1!G2 !1!^G | [!3!=C!1!A]3 !2!D3 | %591
!mf! !>![!4!G,!3!B,!2!D]3 [!3!G,!2!B,][!3!A,!2!=C][!3!^A,!2!^C] | !2!D3 !1!G3 | %593
 !1!F2 !1!F{/!1!G} !1!F!1!E!1!F | [!2!B,!1!G]2 x4!D.C.! :| %595
[K:A][M:2/4]"^No. 20""^Andantino"[Q:1/4=88] [!3!A,!2!C][!3!B,!2!D] | %596
 [!3!^B,!2!^D][!3!C!2!E] [!3!C!1!A][!2!E!1!G] | [!3!C!2!^E][!3!=D!2!F] [!3!=B,!2!D][!3!A,!2!C] | %598
 [!3!G,!2!B,][!3!A,!2!C] [!3!B,!2!D][!3!G,!1!E] | [!3!B,!2!D][!3!A,!2!C] [!3!A,!2!C][!3!B,!2!D] | %600
 [!3!^B,!2!^D][!3!C!2!E] [!4!A,!3!C!1!A][!4!A,!3!C!2!F] | !3!^D!2!F !1!E!1!G | !1!F!1!A !2!^D!1!F | %603
 [!6!E,,!3!G,!1!E] x :: !1!E!1!E | (!1!B!1!G) !1!E!1!E | (!1!E!1!A) !1!E!1!E | !2!D!1!E !2!C!1!E | %608
 !2!B,2 !1!E!1!E | (!1!B!1!G) !1!E!1!E | !1!c!1!A !1!E!1!E | %611
 [!3!^B,!2!^D][!3!=B,!2!=D] [!3!^A,!2!C][!3!=A,!2!=C] | %612
 [!3!G,!2!B,] x!mp! [!3!A,!2!C]!mf![!3!B,!2!D] |!f! [!3!^B,!2!^D][!3!C!2!E] [!2!C!1!A][!2!E!1!G] | %614
 [!3!C!2!^E][!3!=D!2!F] [!3!=B,!2!D][!3!A,!2!C] | [!3!G,!2!B,][!3!A,!2!C] [!3!B,!2!D][!2!C!1!E] | %616
 [!3!A,!2!C]!1!E [!2!C!1!A][!2!E!1!G] | [!2!D!1!F]2 [!2!D!1!F][!2!D!1!F] | !1!E2 !1!E!1!A | %619
 [!2!D!1!F][!3!B,!2!D] [!3!G,!2!B,]!1!E | [!5!A,,!3!A,] x :| x2 |] %622
[M:3/4]"^No. 21"!p!"^Andante"[Q:1/4=90] !1!E2 !1!A2 !1!G2 |{!1!G} !1!F2 !1!E2 !2!C2 | %624
!<(! !2!D2- (3!2!x!2!C!2!D (3!2!B,!1!F!1!E!<)! |!mf! [!3!B,!2!D]2 [!3!A,!2!C]2 x2 | %626
!mf! !1!E2 !1!A2 !1!G2 | (!1!G2 !1!F)!2!^D!>(! !1!E!2!B, | !2!C>!1!E !2!B,2 !2!^D2!>)! | %629
!p! [!3!A,!1!F]2!<(! [!3!G,!1!E]2 x2!<)! |!mf! !1!E>!1!F !1!E2 !2!C2 | [!3!B,!2!D]4 [!3!G,!2!B,]2 | %632
!>(! [!3!A,!2!C]2 [!3!A,!2!C]2 [!3!B,!2!D]2 | [!3!A,!2!C]4!>)!!p! [!3!G,!2!B,]2 | %634
!mp! [!2!C!1!E]2 [!2!D!1!F]3 [!2!C!1!E] | [!3!^A,!2!C]2 [!3!B,!2!D]2 [!3!G,!2!B,]2 | %636
!<(! !2!C7/2 !2!E/ !2!^D>!1!F | [!3!G,!1!E]4 x2!<)! |!ff! !1!E2 !1!A2 !1!G2 | %639
{!1!G} !1!F2 !1!E2 !2!C2 | !2!D2- (3!2!x!2!C!2!D (3!2!B,!1!F!1!E | [!3!B,!2!D]2 [!3!A,!2!C] x x2 | %642
!f! (3!3!x!3!C!2!E (3!1!A!1!A!1!A !1!A2 | %643
!ff! (3!5!x!2!B,!1!F (3!1!A!1!A!1!A (3!1!A[!3!^B,!2!^D][!3!B,!2!D] | %644
 [!2!C!1!E]7/2 [!3!A,!2!C]/ [!3!B,!2!D]>[!3!G,!2!B,] |!mp! !3!A, x!p! [!2!C!1!A] x x2 |] %646
[K:C][M:2/4]!mf!"^No. 22""^Andantino"[Q:1/4=86] !1!E!1!E !1!E!1!E | !1!E2 !1!A2 | %648
 [!2!D!1!F][!2!C!1!E] [!3!B,!2!D][!3!A,!2!C] | !2!B, !1!E3- | !1!x !1!E2 !1!E | !1!E2 !1!^F2 | %652
!p! x !1!E2 !2!^D |!<(! !1!E3 !2!=D!<)! |!f! !1!E!1!E !1!E!1!E | !1!E2 !1!A2 | %656
 [!2!D!1!F][!2!C!1!E] [!3!B,!2!D][!3!A,!2!C] | !2!B, !1!E3 | x !1!E !1!E!1!E | !1!E2 !1!^F2 | %660
 [!3!G,!2!B,] !1!E2 !2!^D | [!3!G,!1!E]2 x2 |:!mp! !1!E3 !1!E |!mf! !1!F4 | !1!E3 !1!E | %665
!mf! !1!F4 |!mf! !1!E[!2!C!1!E] [!3!_B,!1!G][!3!B,!1!G] | !1!G!1!F !2!C2- | %668
 !2!x!2!^C !2!D[!3!A,!2!^D] | [!3!^G,!1!E]2 x2 |!f! !1!E!1!E !1!E!1!E | !1!E2 !1!A2 | %672
 [!2!D!1!F][!2!C!1!E] [!3!B,!2!D][!3!A,!2!C] | !2!B,!<(!!1!E !2!^D!2!=D!<)! | %674
!ff! x!mf! !1!A !1!^G!1!=G | [!2!E!1!G][!2!D!1!F] [!2!C!1!E][!3!B,!2!D] | %676
!>(! [!3!A,!2!C][!3!A,!2!C] [!3!B,!2!D][!3!^G,!2!B,]!>)! |!p! !3!A,[!4!E,!2!C] x2 :| %678
[M:6/8]!p!"^No. 23""^Allegro moderato"[Q:3/8=84]{/!5!B,,} !5!A,,!6!^G,,!5!A,, !6!E,,2 !5!C, | %679
 !5!A,,2 !4!E, !5!C,2 !3!A, | !4!E,2 !3!A,{/!3!A,} !3!C>!3!B,!3!A, | !3!^G,2 !2!B, !4!E, x2 | %682
!mf! !1!E2 !1!E (!1!G!1!F)!1!E | [!5!C,!3!A,!1!E]3 [!4!D,!3!B,!2!D]3 | %684
 !2!C>!2!B,!2!C [!3!B,!2!D]2 [!3!^G,!2!B,] | !3!A,2 [!4!E,!2!C]- !4!x x2 :| %686
!p!!<(! [!4!E,!2!C]2 [!3!G,!1!E] [!4!E,!2!C]2 [!3!G,!1!E] | %687
 [!4!E,!2!C]2 [!3!G,!1!E] [!4!E,!2!C]2 [!3!G,!1!E]!<)! | %688
!mf! [!4!F,!2!D]2 [!3!G,!2!^C] [!4!F,!2!D]2 [!3!G,!2!B,] | [!4!E,!2!C]2 [!3!G,!1!E] !1!G3 | %690
!p!!<(! [!4!E,!2!C]2 [!3!G,!1!E] [!4!E,!2!C]2 [!3!G,!1!E] | %691
 [!4!E,!2!C]2 [!3!G,!1!E] [!4!E,!2!C]2 [!3!G,!1!E]!<)! |!mf! !2!D2 !2!B, !3!G,!3!A,!2!B, | %693
 [!5!C,!4!E,!2!C]2 [!5!C,!3!G,!1!E] [!5!C,!4!E,!2!C]2 x | !5!A,,!6!^G,,!5!A,, !6!E,,2 !5!C, | %695
 !5!A,,2 !4!E, !5!C,2 !3!A, | !4!E,2 !3!A, !2!C>!2!B,!3!A, | !3!^G,2 !2!B, !4!E,2 x | %698
!f! !1!E2 !1!E !1!G!1!F!1!E | [!5!C,!3!A,!1!E]3 [!4!D,!3!B,!2!D]3 | %700
{/!2!D} !2!C>!2!B,!2!C [!3!B,!2!D]2 [!3!^G,!2!B,] | [!5!A,,!3!A,]2 [!4!E,!2!C] !5!A,,2 x!fine! |: %702
[K:A]!>(! [!3!C!2!E]3 [!3!D!2!F]2 [!3!C!2!E]!>)! | %703
!p! [!3!^B,!2!^D]2 [!3!C!2!E] [!3!=D!2!F]2 [!2!E!1!G] | %704
 [!2!F!1!A]2 [!2!^E!1!G]{/!1!B} [!2!F!1!A]2 [!2!=E!1!G] | [!2!E!1!G]2 [!3!D!2!F] [!3!C!2!E]2 x | %706
!mf! !3!D3 !3!D3 | !3!C!2!E!1!A (!1!c!1!B)!1!A | (!1!G!1!E)!1!B (!1!G!1!E)!1!B | %709
 [!3!C!1!A]3 x x2!D.C.! :|[M:3/8]"^No. 24""^Valse"[Q:3/8=70] !1!G/!1!A/ | !1!E!1!E!1!G/!1!A/ | %712
 !1!E!1!E!2!x/!1!E/ | !3!x/!2!B,/!1!G/!1!E/!1!B/!1!G/ | !1!A!1!E!1!G/!1!A/ | %715
 !1!E!1!E(!1!G/4!1!A/4!1!B/4!1!A/4) | !1!E!1!E!2!x/!1!E/ | !2!x/!2!B,/!1!G/!1!E/!1!B/!1!G/ | %718
 [!5!A,,!3!C!1!A] x :: (!1!^d/!1!e/) | !1!E!1!E!1!G/!1!B/ | (!1!A!1!E)(!1!^d/!1!e/) | %722
 !1!E!1!E!1!G/!1!B/ | !1!A!1!E!1!G/!1!A/ | !1!E(!1!c/!1!A/!1!E) | !2!F!1!B/>!1!^A/!1!B/>!1!c/ | %726
 !1!d[!3!D!2!G][!3!D!2!G] | [!5!A,,!3!C!2!A] x :: [!2!F!1!A]/>!1!A/ | %729
 [!2!F!1!A][!3!D!2!F][!2!F!1!A]/>!1!A/ | [!2!F!1!A][!3!D!2!F][!2!F!1!A]/>!1!A/ | %731
 [!2!F!1!A][!3!D!2!F][!1!E!2!=G] | [!4!A,!2!E] x (3!4!A,/!4!A,/!4!A,/ | %733
 .!4!A,(3!4!A,/!4!A,/!4!A,/.!4!A, | (3!4!A,/!4!A,/!4!A,/.!4!A,(3!4!A,/!4!A,/!4!A,/ | %735
 !6!x[!4!A,!3!E!2!=G!1!c][!4!A,!3!E!2!G!1!c] | [!4!D,!3!D!2!F!1!d] x :| !2!F | %738
!mp! !3!x/!2!F/!1!x/!2!F/!1!c | !2!x/!2!F/!2!x/!2!F/!1!d | !5!x[!2!E!1!^A][!3!C!2!E!1!A] | %741
!mf! !1!^A!1!B!2!=F |!mp! !3!x/!2!E/!2!x/!2!E/!1!B | !3!x/!2!E/!2!x/!2!E/!1!c | %744
!mf! !5!x[!2!D!1!G][!2!D!1!G] | !1!G!1!A!1!E- | !1!x/!2!^D/[!3!=C!1!A][!3!C!1!A] | %747
 (!1!A/!1!G/)!1!E!1!E- | !1!x/!2!^D/[!3!=C!1!A][!3!C!1!A] | [!3!B,!2!E!1!G]2 (!1!B/!1!G/) | %750
 !1!E2 (!1!B/!1!G/) | !1!E2 (!1!B/!1!G/) | !1!E!1!E!1!E | !1!E2 !1!G/!1!A/ | %754
!f! !1!E!1!E(!1!G/4!1!A/4!1!B/4!1!A/4) | !1!E!1!E!2!x/!1!E/ | !2!x/!2!B,/(!1!G/!1!E/)(!1!B/!1!G/) | %757
 !1!A!1!E!1!G/!1!A/ | !1!E!1!E(!1!G/4!1!A/4!1!B/4!1!A/4) | !1!E!1!E!2!x/!1!E/ | %760
 !2!x/>!2!B,/(!1!G/!1!E/)(!1!B/!1!G/) | [!5!A,,!3!C!1!A] x || (!1!^d/!1!e/) | %763
 !1!E!1!E(!1!G/!1!B/) | !1!A!1!E(!1!^d/!1!e/) | !1!E!1!E(!1!G/!1!B/) | !1!A!1!E(!1!c/>!1!A/) | %767
 !2!E[!3!C!2!E][!3!C!2!^E] | [!3!D!2!F]{/!1!c}!1!B/!1!^A/!1!B/!1!c/ | %769
 !1!d!ff![!3!B,!2!D!1!G][!3!B,!2!D!1!G] | [!5!A,,!3!A,!2!C!1!A]2"^fine" x |] %771
V:2
 x2 | x8 | x8 | x8 | x8 | x8 | x8 | x8 | x8 | x8 | x8 | x8 | x8 | x8 | x8 | x8 | x8 | x8 | x8 | %19
 x8 | x8 | x8 | x8 | x8 | x8 | x8 | x8 | x8 | x8 | x8 | x8 | x8 | !5!C,4 !5!C,4 |][M:2/4] !5!C,4- | %34
 !5!x4 | !5!C,4- | !5!x4 | [!5!B,,!3!G,]4 | [!5!C,!3!G,]4 | !4!G,4- | !4!x4 | !5!C,4- | !5!x4 | %43
 !5!C,4- | !5!x4 | [!5!B,,!3!G,]4 | [!5!C,!3!G,]4 | !4!F,2 !3!G,2 | !4!E,!3!G, !5!C,2 || %49
 !3!G,2 !4!D,2 | !3!A,2 !4!D,2 | !3!G,2 !4!D,2 | !3!A,2 !4!D,2 | !3!G,2 !5!B,,2 | !5!C,4 | %55
 !4!D,3 x | x !6!G,, !5!A,,!5!B,, | !5!C,4- | !5!x4 | !5!C,4- | !5!x4 | [!5!B,,!3!G,]4 | %62
 [!5!C,!3!G,]4 | !3!G,4 | !3!G,2 x2 | !5!C,4- | !5!x4 | !5!C,4- | !5!x4 | [!5!B,,!3!G,]4 | %70
 [!5!C,!3!G,]4 | !4!F,2 !3!G,2 | !4!E,!3!G, !5!C,2 |][M:3/4] !5!C,6 | !4!D,4 !4!F,2 | %75
 !4!E,4 !5!C,2 | !5!B,,2 !3!G,2 !4!F,2 | !4!E,6 | !4!F,6 | !3!G,!4!F, !4!E,2 !5!C,2 | %80
 !3!G,2 !6!G,,4 | !5!C,6 | !4!D,4 !4!F,2 | !4!E,4 !5!C,2 | !5!B,,2 !3!G,4 | !5!C,2 !4!D,2 !4!E,2 | %86
 !4!F,4 !4!E,2 | !4!D,4 !3!G,2 | !5!C,2!p! !4!E,!3!G, !5!C,2 | !5!B,,6 | %90
 !5!C,3 !5!B,, !5!A,,!6!G,, | !6!^F,,6 | !6!G,,4 x2 | !5!B,,6 | !5!C,6 | !4!D,4 x2 | x2 !6!G,,4 | %97
 !5!C,6 | !4!D,4 !4!F,2 | !4!E,4 !5!C,2 | !5!B,,2 !3!G,2 !4!F,2 | !4!E,6 | !4!F,6 | %103
 !3!G,!4!F, !4!E,2 !5!C,2 | !5!B,,2 !6!G,,2 x2 | !5!C,6 | !4!D,4 !4!F,2 | !4!E,4 !5!C,2 | %108
 !5!B,,2 !3!G,4 | !5!C,2 !4!D,2 !4!E,2 | !4!F,6 | !4!D,4 !3!G,2 | %112
 !5!C,!p!!3!G, !4!E,!3!G, !5!C,2 |][M:2/4] x | x !5!C, !4!E,2 | x !4!F, !4!D,2 | %116
 x !6!G,, !3!G,!4!F, | !4!E,!4!D, !5!C,2 | x !4!E, !5!C,2 | x !5!B,, !3!G,2 | x !5!C, !4!D, x | %121
 x !6!G,, !4!G,2 :: x !4!E, !5!^C,!5!A,, | x !4!D,/!5!C,/ !5!B,,!3!x/!3!G,/ | !5!C,!4!E, !4!F,2 | %125
 x !3!G, !6!G,,2 | x !6!E,, !3!G,2 | x !6!F,, !3!A,2 | x !6!^F,, !4!D,2 | x !6!G,, !3!G,!4!F, | %130
 !4!E,!4!D, !5!C,!4!D,/!4!E,/ | !4!F,!4!E, !4!D,!4!E,/!4!F,/ | !3!G,!6!G,, !3!G,!4!F, | %133
 !4!E,!4!D, !5!C,2 | x !6!E,, !3!G,2 | x !6!F,, !4!F,2 | !3!G,2 !6!G,,2 |1 %137
 !5!C,[!4!E,!3!G,] !5!C, x :|2 !5!C,[!4!E,!3!G,] !5!C, |][M:3/8] !5!C,3- | !5!x!4!E,!5!C, | %141
 !5!B,,3- | !5!x!5!B,,!5!B,, | !5!C,3 | !4!F,3 | !3!G,3- | !3!x x2 | !5!C,3- | !5!x!4!E,!5!C, | %149
 !5!B,,3- | !5!x!5!B,,!5!B,, | !5!C,3 | !4!F,3 | !3!G,3 | !5!C, x2 | !5!B,,2 x | !5!C,2 x | %157
 !4!D,3 | !4!E,3 | !5!B,,3 | !5!C,3 | x/ !4!D,2 x/ | !3!G,!3!G,!3!G, | !5!B,,3 | !5!C,3 | %165
 !4!D,!3!G,!4!F, | !4!E,3 | !5!B,,3 | !5!C,3 | !2!x/!4!D,/!3!A,/!2!C/ !2!x/!2!C/ | !3!G,2 x | %171
 !5!C,3- | !5!x!4!E,!5!C, | !5!B,,3- | !5!x!5!B,,!5!B,, | !5!C,3 | !4!F,3 | !3!G,3- | !3!x2 x | %179
 !5!C,3- | !5!x!4!E,!5!C, | !5!B,,3- | !5!x!5!B,,!5!B,, | !5!C,3 | !4!F,3 | !6!G,,3 | !5!C,3 |] %187
[K:G][M:3/4] x2 | x6 | x6 | x6 | x6 | x6 | !3!G,2 !4!D,2 !5!B,,2 | !5!C,2 x4 | x6 | !3!x!5!B,, x4 | %197
 x6 | x6 | x6 | x6 | x6 | x6 | x6 | x6 | x6 | x6 | x6 | x6 | x6 | x6 | x4 !3!G,2 | %212
 !4!D,2 !5!B,,2 !6!G,,2 | x6 | x6 | x6 | !3!x!1!E !4!x!2!C !5!x!3!A, | !3!G,2 !4!D,2 !5!B,,2 | %218
 !5!C,2 !5!A,,2 !4!D,2 | x6 |][M:2/4] x | x4 | !3!B,2 !3!G,!4!D, | !3!A,!4!D, !3!G,!4!D, | %224
 !4!F,2 !4!D,2 | x4 | !3!B,2 !3!G,2 | !5!A,,4 | x !5!D, !4!D, :: x | !3!A,!4!D, !3!A,!4!D, | %231
 !3!G,!4!D, x2 | !3!A,!4!D, !3!A,!4!D, | !3!G,!4!D, x2 | !3!^G,!4!E, !3!G,!4!E, | !5!A,,2 x2 | %236
 !4!F,!5!D, !4!F,!5!D, | !6!G,,3 x | x4 | x !5!C,/>!5!B,,/ !5!A,,!5!C, | !4!D,3 x | x4 :| %242
[M:2/4] !3!B,2 !3!G,!3!A, | !3!B,2 !3!G,!3!A, | !3!B,2 !3!G,!3!A, | !3!C2 !3!B,!3!G, | %246
 !2!E!3!G, !2!D!3!G, | !2!C!3!G, !3!B,!3!G, | !3!A,!4!F, !3!G,!4!D, | !4!F,!5!D, x2 | %250
 !3!B,2 !3!G,!3!A, | !3!B,2 !3!G,!3!A, | !3!B,2 !3!G,!3!A, | !3!C2 !3!B,!3!G, | %254
 !2!E!3!G, !2!D!3!G, | !2!C!3!G, !3!B,!3!G, | x !5!C, !4!D, x | x !4!D, !6!G,,2 | %258
 !4!F,!5!D, !4!F,!5!D, | !3!G,!4!D, !3!G,!4!D, | !3!G,!4!D, !3!G,!4!D, | !4!F,!5!D, !4!F,!5!D, | %262
 !4!F,!5!D, !4!F,!5!D, | !3!G,!4!D, !3!G,!4!D, | !3!G,!4!D, !3!G,!4!D, | !4!F,!5!D, !4!D,!4!D, | %266
 !3!C!4!D, !3!C!3!B, | !3!C!4!D, !3!C!3!B, | !3!A,!4!D, !3!^G,!4!E, | !3!A,!4!D, !3!=G,!4!D, | %270
 !4!F,!4!D, !4!F,!3!A, | !3!G,!4!D, !3!G,!3!B, | !3!A,!4!D, !3!G,!4!D, | !4!F,!3!G, !3!A,!3!^A, | %274
 !3!B,2 !3!G,!3!=A, | !3!B,2 !3!G,!3!A, | !3!B,2 !3!G,!3!A, | !3!C2 !3!B,!3!G, | %278
 !2!E!3!G, !2!D!3!G, | !2!C!3!G, !3!B,!3!G, | !3!A,!4!F, !3!G,!4!D, | !4!F,!5!D, x2 | %282
 !3!B,2 !3!G,!3!A, | !3!B,2 !3!G,!3!A, | !3!B,2 !3!G,!3!A, | !3!C2 !3!B,!3!G, | %286
 !2!E!3!G, !2!D!3!G, | !2!C!3!G, !3!B,!3!G, | x !5!C, !4!D, x | x !4!D, !6!G,,2 |] %290
[M:4/4] !6!G,,4 !5!A,,4 | !5!B,,4 !5!C,4 | !5!D,6 x2 | x2!<(! !6!G,,2 !5!B,,2 !4!D,2!<)! | %294
 !3!G,4 [!4!E,!3!G,]4 | !4!F,2 !4!D,2 !3!G,2 !6!G,,2 | !5!A,,8 |1 !5!D,2 !4!D,2 !5!C,2 !5!A,,2 :|2 %298
 !5!D,2 !5!D,2 !4!D,2 !4!D,2 |: !4!D,4 !3!^G,4 | !3!A,2 !4!D,2 !4!F,2 !5!D,2 | %301
 !3!G,2 !4!D,2 !3!A,2 !3!G,2 | !4!F,4 x4 | x2 !4!G,2 !4!F,2 !4!=F,2 | [!4!E,!3!G,]6 !4!_E,2 | %305
 !4!D,6 x2 |1 x8 :|2 x2 !4!D,2 !6!G,,4 ||[M:6/8] x3 | [!3!G,!2!B,]2 !4!D, [!3!A,!2!C]2 !4!D, | %310
 [!3!G,!2!B,]2 !4!D, !3!G,2 !4!D, | !3!A,2 !4!D, !3!A,2 !4!D, | !3!G,2 x4 | %313
 [!3!G,!2!B,]2 [!4!D,!2!B,] [!3!A,!2!C]2 [!4!D,!2!C] | [!3!G,!2!B,]2 [!3!A,!2!^C] [!3!B,!2!D]2 x | %315
 [!3!G,!2!B,]2 !6!G,, [!5!A,,!3!G,]3 | !5!D,2 x :: x3 | !3!A,2 !4!D, [!3!A,!2!C]2 !4!D, | %319
 [!3!G,!2!B,]2 x4 | !3!A,2 !4!D, [!3!A,!2!C]2 !4!D, | [!3!G,!2!B,]2 x4 | x2 x !4!^D,3 | %323
 !4!E,3 !5!C,2 x | !4!D,6 | [!3!G,!2!B,]2 x :| x3 | !6!G,,6 | (!3!B,2 !3!G,) !3!G,2 !3!G, | %329
 !6!G,,6 | !3!B,2 x !2!B,!3!G,!2!B, | !3!A,!2!C!3!A, !2!B,!2!D!2!B, | !2!C2 x !5!C,!4!E,!3!G, | %333
 !5!D,3 !5!D,3 | !3!G,2 x !3!G,!4!D,!5!B,, | !6!G,,!5!B,,!4!D, !3!G,!5!B,,!4!D, | !6!G,,6 |] %337
[M:4/4] [!4!E,!3!G,]4 [!4!E,!3!A,]4 | [!4!E,!3!G,]6 x2 | [!4!^D,!3!A,]4 [!4!D,!3!A,]4 | %340
 !4!E,4 !3!G,2 x2 | [!4!E,!3!G,]4 [!4!E,!3!A,]4 | [!4!E,!3!G,]6 !6!E,,2 | %343
 [!5!A,,!3!A,!2!C]4 x2 !5!^A,,2 | [!5!B,,!4!F,]2 x2 !5!B,,2 x2 :: !6!G,,4 x2 !3!G,2 | %346
 !3!A,4 !4!D,2 [!4!^D,!3!A,!2!B,-]2 | [!4!E,!3!G,]2 [!6!E,,!2!B,]2 [!5!A,,!3!A,]2 [!5!^A,,!3!G,]2 | %348
 !5!B,,4 !4!F,2 x2 | !5!^D,8 | !4!E,2 !6!E,,4!mf! !3!G,2 | x2 !5!A,,2 !5!B,,4 | %352
 !4!E,2!p! !5!B,,2 !6!E,,4 :|[M:6/8] x | [!4!E,!3!G,]6 | [!4!^D,!3!A,]6 | %356
 [!4!E,!3!G,]2 [!4!F,!3!A,] [!3!G,!2!B,]2 [!5!A,,!3!A,!2!C] | !5!B,,3- !5!x2 x | %358
 [!4!E,!3!G,]3- !4!x2 [!4!E,!3!G,] | [!4!^D,!3!A,]3- !4!x2 [!4!D,!3!A,] | %360
 [!4!E,!3!G,]2 [!5!A,,!3!A,!2!C] [!5!B,,!3!G,!2!B,]2 [!4!F,!3!A,] | !6!E,,3- !6!x2 |: x | !5!^D,6 | %364
 !5!E,6 | !5!A,,3- !5!x2 !5!^A,, | !5!B,,3- !5!x2 x | !4!E,3 !6!E,,3 | !5!A,,3- !5!x2 !5!A,, | %369
 [!5!B,,!3!G,]3 x !2!B,[!4!^D,!3!A,] | !6!E,,3- !6!x2 ::[K:E] x | !6!E,,6 | !6!E,,6 | %374
 !6!E,,3 !6!E,,3 | x !6!E,,!6!E,, !6!E,,2 x | !6!E,,6 | !6!F,,6 | !6!F,,6 | %379
 !6!B,,!4!F,!5!D, !6!B,,2 :: x | !4!D,3 !4!D,3 | !5!E,3 x [!4!E,!3!G,][!4!E,!3!G,] | %383
 !4!D,3 !4!D,3 | !4!E,3 x x x | !6!E,, x !6!E,, !6!E,, x !6!E,, | !6!E,,3 x2 !6!E,, | %387
 [!5!A,,!2!C]3 [!5!B,,!3!A,]3 | !6!E,,3- !6!x2 :|[K:G][M:3/8] [!6!E,,!3!G,]3 | [!6!E,,!3!G,]3 | %391
 [!4!^D,!3!A,]3 | [!6!E,,!3!G,]3 | [!6!E,,!3!G,]3 | [!6!E,,!3!G,]3 | x3 | !5!B,,3 :: x3 | x3 | %399
 !3!x!5!B,,!5!B,, | [!5!B,,!4!F,]3 | x3 | x3 | !3!A,!5!A,,!5!B,, |1 !6!E,,2 x :|2 %405
 !6!E,,!6!E,,!6!E,, |:[K:E] [!6!E,,!3!G,]3 | [!6!E,,!3!A,]3 | [!6!E,,!3!B,]3 | [!6!E,,!2!B,]3 | %410
 [!6!E,,!3!G,]3 | [!6!E,,!3!A,]3 | [!6!E,,!3!B,]2 !3!A, | !6!E,,!6!E,,!6!E,, :|[K:D][M:3/4] x2 | %415
 x6 | x6 | x6 | x6 | x6 | !4!E,4 !4!D,2 | !5!C,2 !4!D,2 !4!E,2 | x2 !5!A,,4- | [!5!x!3!A,]6 | %424
 [!5!A,,!3!A,]6 | !5!A,,6 | x2 !5!A,,4- | [!5!x!3!A,]6 | !5!A,,6- | !5!x4 x2 | x6 | x6 | x6 | x6 | %434
 x6 | x6 | x6 | x6 | x6 | x6 | x6 | !6!F,,2 !6!G,,2 !6!A,,2 | x6 |][M:2/4] x | x4 | x4 | x4 | x4 | %448
 x4 | x4 | x4 | x3 :| x | x3 !3!B,/!3!A,/ | !3!G,!4!F, !4!E, x | x3 !3!A,/!3!G,/ | %456
 !4!F,!4!E, !4!D, x | !3!G,4 | !4!F,3 !4!F, | !3!G,4 | !4!F,3 !4!F,/!4!E,/ | !4!D,4 | !4!E,4 | %463
 !4!F,4 | !3!G,2 x2 | x3 !3!A,/!3!G,/ | !4!F,/!4!E,/!4!D,/!5!C,/ !5!B,,/!5!C,/!5!B,,/!5!A,,/ | %467
 !6!^G,,4 | !5!A,,3 x | !4!D,3 !4!E,/!4!F,/ | !3!G,!4!F, !4!E,!5!D, | %471
 !5!C,!5!B,, !5!A,,!5!B,,/!5!C,/ | !5!D,2 x !4!F, | !3!G,!3!^G, !3!A,!3!^A, | %474
 [!3!B,!2!D][!2!B,!1!G] [!2!C!1!E]!3!A, | x4 | x4 |][M:2/4] x | !5!D,2 !4!F,2 | !3!G,2 !3!^G,2 | %480
 !3!A,!3!G, !4!F,!4!D, | !3!A,!5!A,, x2 | !4!D,3 !4!D, | !5!C,4 | !4!D,2 !4!E,2 | x !4!E, !5!A,, :: %486
 x | x !5!A,, !3!G,2 | x !5!A,, !4!F,!4!D, | !5!C,!5!A,, !4!D,!4!F, | !3!A,2 x2 | x !5!A,, !3!G,2 | %492
 x !5!A,, !4!F,2 | x !5!A,,- [!5!x!4!=F,!2!D]2 | x [!4!E,!2!C] !5!A,,2 | !4!D,2 !4!F,2 | %496
 !3!G,!4!E,/>!4!F,/ !3!G,!3!^G, | !3!A,!3!G, !4!F,!4!D, | !3!A,!5!A,, x !4!D, | %499
 [!3!G,!2!B,]3 [!3!G,!2!B,] | [!4!F,!3!^A,]2 x [!4!F,!3!=A,] | [!4!E,!3!^G,]2 [!5!A,,!3!=G,]2 | %502
 [!5!D,!4!F,]!5!C, !4!D,!4!E, | !4!F,4 | [!3!G,!2!B,]2 x2 | !5!A,,4 | !5!D,!5!A,, !5!D, x :| %507
[K:F][M:3/4] x2 !4!D,2 !4!E,2 | !4!F,6 | !4!G,4 !3!^G,2 | !3!A,2 !5!A,,4 | x2 !4!D,2 !5!A,,2 | %512
 !5!B,,6 | !5!A,,2 !5!B,,2 !5!C,2 | x!p! !4!F, !5!C,!5!A,, !6!F,,2 | x2 !4!D,2 !4!E,2 | !4!F,6 | %517
 !4!G,4 !3!^G,2 | !3!A,2 !5!A,,4 | x2 !4!D,2!f! !5!A,,2 | !5!B,,6 | !5!A,,2 !5!B,,2 !5!C,2 | %522
 x!pp! !4!F, !5!C,!5!A,, !6!F,,2 | [!4!F,!3!A,]4 [!4!F,!3!C]2 | [!5!C,!3!B,]4 [!5!^C,!3!B,]2 | %525
 [!4!D,!3!A,]2 [!6!G,,!3!G,]2 [!6!^G,,!4!F,]2 | [!5!A,,!4!E,]4 x2 | x6 | %528
 !4!D,2 [!4!E,!3!G,]2 [!4!F,!3!A,]2 | [!4!G,!3!B,]4 [!5!A,,!3!G,]2 | x6 | %531
 [!4!F,!3!A,]4 [!4!F,!3!C]2 | [!5!C,!3!B,]4 [!5!^C,!3!B,]2 | %533
 [!4!D,!3!A,]2 [!6!G,,!3!G,]2 [!6!^G,,!4!F,]2 | [!5!A,,!4!E,]4 x2 | x6 | %536
 !4!D,2 [!4!E,!3!G,]2 [!4!F,!3!A,]2 | [!4!G,!3!B,]4 [!5!A,,!3!G,]2 | x6 |] %539
[K:D][M:4/4] !4!D,2 x2 !4!F,2 !2!D2 | !2!F2 !4!A,2 !3!D2 !2!F2 | !4!D,4 !4!F,2 !4!D,2 | %542
 !5!A,,2 !4!A,2 !4!A,2 !4!A,2 | !4!D,2 !4!F,4 !2!D2 | !2!F2 !4!A,2 !3!D2 !2!F2 | %545
 [!5!A,,!3!C]4 !6!E,,4 | !5!A,,2 !4!A,2 !5!A,2 x2 :: !5!A,,8 | !5!A,,2 !5!D,>!5!C, !5!=C,2 !2!C2 | %549
 !5!A,,2 x2 !5!A,,2 x2 | !5!A,,2 !3!A,2 !3!A,2 !3!A,2 | !5!A,,8 | %552
 !5!A,,2 !5!=C,>!5!^C, !5!D,2 !2!E2 | x8 | !3!A,2 !5!A,,2 !5!A,,2 x2 | !5!D,8 | !5!D,8 | x8 | %558
 [!3!G,!2!B,]2 !6!G,,2 [!4!G,!3!=C!2!E]4 | !5!A,,6 !5!A,,2 | !4!D,4!mf! !4!D,4 | %561
 [!3!G,!2!B,]4 x2 !5!A,,2 | x8 :|[M:6/8] x6 | x6 | !2!F3 !2!D3 | x6 | x6 | x6 | !2!F2 !2!D !3!A,3 | %570
 !4!F,x[!5!D,!4!F,] [!5!D,!4!F,]2 x :| [!5!A,,!2!C]x[!5!A,,!2!C] [!5!A,,!2!C]2 [!5!A,,!2!C] | %572
 [!5!A,,!2!C]2 [!5!A,,!2!C] [!5!A,,!2!C]2 [!5!A,,!2!C] | [!5!A,,!2!D]3 [!5!A,,!2!D]3 | %574
 !5!A,,2 !5!A,, !5!A,,2 !5!A,, | [!5!A,,!2!C]2 [!5!A,,!2!C] [!5!A,,!2!C]2 [!5!A,,!2!C] | %576
 [!5!A,,!2!C]2 [!5!A,,!2!C] [!5!A,,!2!C]2 [!5!A,,!2!C] | [!5!A,,!2!D]6 | [!5!A,,!2!C]3 !4!A,3 || %579
 x6 | x6 | !2!F3 !2!D3 | x6 | x6 | x6 | !2!F2 !2!D !3!A,3 | !4!F,2 [!5!D,!4!F,] [!5!D,!4!F,]2 x |: %587
 x6 | !3!B,2 !4!G, !2!B,2 !4!D, | !3!A,2 !4!D, !3!G,2 !4!D, | !4!F,2 !4!D, [!4!F,!3!=C]2 !4!D, | %591
 x6 | !3!B,2 !4!G, !2!B,2 !4!D, | [!3!A,!2!=C]2 x [!4!D,!3!A,!2!C]3 | !3!G,2 !4!D, !6!G,,2 x :| %595
[K:A][M:2/4] x2 | !5!A,,4 | !4!=D,4 | !4!E,2 !6!E,,2 | !5!A,,4 | !5!A,,4 | %601
 [!4!A,!2!B,]2 [!4!G,!2!B,][!6!E,,!2!B,] | [!5!A,,!2!C]2 [!5!B,,!3!A,][!5!B,,!3!A,] | x2 :: x2 | %605
 [!6!E,,!3!D]4 | [!6!E,,!2!C]4 | [!6!G,,!3!B,]2 [!5!A,,!3!A,]2 | !6!E,,2 x2 | [!6!E,,!3!D]4 | %610
 [!6!E,,!3!C]4 | !6!E,,2 !6!E,,2 | !6!E,, x !5!A,,!5!A,, | !5!A,,4 | !4!=D,4 | !4!E,2 !6!E,,2 | %616
 !5!A,,2 x2 | !4!D,!5!C, !5!B,,!5!A,, | !6!G,,!6!E,, !5!A,,2 | !4!D,2 !4!E,!6!E,, | x2 :| x2 |] %622
[M:3/4] !5!A,,6 | !5!A,,6 | !5!A,,2 !5!A,,2 !5!A,,2 | !5!A,,3!p! !5!A,, !4!E,!5!C, | %626
 !5!A,,3 !5!C, !4!E,!4!^E, | [!4!F,!3!A,]4 !3!G,2 | !5!^A,,2 !5!B,,2 !5!B,,2 | !6!E,,6 | !6!E,,6 | %631
 !6!E,,6 | !6!E,,6 | !6!E,,6 | !6!E,,6 | !6!E,,6 | !6!E,,6 | !6!E,,6 | !5!A,,6 | !5!A,,6 | %640
 !5!A,,2 !5!A,,2 !5!A,,2 | !5!A,,2- (3!5!x!mf!!5!A,,!6!G,, (3!5!A,,!5!C,!4!E, | !4!=G,6 | %643
 !4!F,4 !4!=F,2 | !4!E,2!>(! !6!E,,4!>)! | !5!A,, x !5!A,, x x2 |] %646
[K:C][M:2/4] [!3!A,!2!C][!3!A,!2!C] [!3!^G,!2!B,][!3!B,!2!D] | [!3!A,!2!C]2 !2!x!5!A,, | %648
 !4!D,3 !4!^D, | [!4!E,!3!^G,]2 [!4!^F,!3!A,][!3!G,!2!B,] | %650
 [!3!A,!2!C][!3!A,!2!C] [!3!^G,!2!B,][!3!B,!2!D] | [!3!A,!2!C]4 | [!3!=G,!2!B,]2 [!4!^F,!3!A,]2 | %653
 [!4!E,!3!G,][!4!D,!3!^G,] [!5!C,!3!A,][!5!B,,!3!G,] | %654
 [!5!A,,!3!A,!2!C][!3!A,!2!C] [!3!^G,!2!B,][!3!B,!2!D] | [!3!A,!2!C]2 !2!x!5!A,, | !4!D,3 !4!^D, | %657
 [!4!E,!3!^G,]2 [!4!^F,!3!A,][!3!G,!2!B,] | [!3!A,!2!C][!3!A,!2!C] [!3!^G,!2!B,][!3!B,!2!D] | %659
 x3!p! !5!A,, | !5!B,,4 | x !4!E, !6!E,,2 |: !5!C,4 | !5!C,4 | !5!C,4 | !5!C,4 | !5!C,2 x !4!E, | %667
 [!4!F,!3!A,]4 | [!4!F,!3!A,]3 x | x !4!E,/!4!D,/ !5!C,!5!B,, | %670
 !5!A,,[!3!A,!2!C] [!3!^G,!2!B,][!3!B,!2!D] | [!3!A,!2!C]2 !2!x!mf!!5!A,, | !4!D,3 !4!^D, | %673
 [!4!E,!3!^G,]2 x2 | !5!A,,4 | !4!D,4 | !4!E,2 !6!E,,2 | !5!A,,2 !5!A,,2 :|[M:6/8] x6 | x6 | x6 | %681
 x6 | [!4!D,!3!^G,!2!B,]6 | x6 | [!4!E,!3!A,]3 !6!E,,3 | !5!A,,3 !5!A,, x2 :| !5!C,3 !5!C,3 | %687
 !5!C,3 !5!C,3 | !5!C,3 !5!C,3 | !5!C,3 !5!C,3 | !5!C,3 !5!C,3 | !5!C,3 !5!C,3 | [!5!C,!4!F,]6 | %693
 x6 | x6 | x6 | x6 | x6 | [!4!D,!3!^G,!2!B,]6 | x6 | [!4!E,!3!A,]3 !6!E,,3 | x6 |:[K:A] !5!A,,6- | %703
 !5!x6- | !5!x6- | !5!x6 | !4!G,3 !6!E,,3 | !5!A,,6 | [!6!E,,!3!D]6 | !5!A,,2 !4!A, !5!A,,2 x :| %710
[M:3/8] x | [!5!A,,!3!C][!5!A,,!3!C] x | [!5!A,,!3!C][!5!A,,!3!C]!3!C | !6!E,,3 | [!5!A,,!3!C]2 x | %715
 [!5!A,,!3!C][!5!A,,!3!C] x | [!5!A,,!3!C][!5!A,,!3!C]!3!C | !6!E,,3 | x2 :: x | !6!E,,3- | !6!x3 | %722
 !6!E,,3 | [!5!A,,!3!C]2 x | [!5!A,,!3!C]2 !3!C | [!4!D,!3!D] x2 | x !5!E,!6!E,, | x2 :: x | %729
 !4!D,3 | x3 | x3 | x3 | x3 | x3 | !5!A,,3 | x2 :| x | !4!^A,3 | !4!B,3 | !4!F,3 | !2!B,2 x | %742
 !4!G,3 | !4!A,3 | !4!E,3 | !5!A,,3 | !6!E,,3- | !6!x3- | !6!x3- | !6!x2 x | !6!E,,3 | !6!E,,3 | %752
 !6!E,,3 | [!4!G,!3!D]2 x | [!5!A,,!3!C][!5!A,,!3!C] x | [!5!A,,!3!C][!5!A,,!3!C]!3!C | %756
 [!6!E,,!3!D]3 | [!5!A,,!3!C]2 x | [!5!A,,!3!C][!5!A,,!3!C] x | [!5!A,,!3!C][!5!A,,!3!C]!3!C | %760
 [!6!E,,!3!D]3 | x2 || x | !6!E,,3- | !6!x2 x | !6!E,,3 | [!5!A,,!3!C]2 x | !5!A,,3 | !4!D,2 x | %769
 x !4!E,!6!E,, | x3 |] %771
V:3
 x2 | x8 | x8 | x8 | x8 | x8 | x8 | x8 | x8 | x8 | x8 | x8 | x8 | x8 | x8 | x8 | x8 | x8 | x8 | %19
 x8 | x8 | x8 | x8 | x8 | x8 | x8 | x8 | x8 | x8 | x8 | x8 | x8 | x8 |][M:2/4] x4 | x4 | x4 | x4 | %37
 x4 | x4 | x4 | x4 | x4 | !3!G,2 x2 | x2 !4!E,2 | !3!G,4 | x4 | x4 | x4 | x4 || x4 | x4 | x4 | x4 | %53
 x4 | x2 !2!C2 | x4 | x4 | x2 !4!E,2 | !3!G,2 x2 | x2 !4!E,2 | !3!G,2 x2 | x4 | x4 | x4 | x4 | x4 | %66
 !3!G,2 x2 | x4 | !3!G,2 x2 | x4 | x4 | x4 | x4 |][M:3/4] x6 | x6 | x6 | x6 | x6 | x6 | x6 | x6 | %81
 x6 | x6 | x6 | x6 | x6 | x6 | x6 | x6 | x6 | x6 | x6 | x6 | x6 | x6 | x6 | x6 | x6 | x6 | x6 | %100
 x6 | x6 | x6 | x6 | x6 | x6 | x6 | x6 | x6 | x6 | x6 | x6 | x6 |][M:2/4] x | x4 | x4 | x4 | x4 | %118
 x4 | x4 | x4 | x4 :: x4 | x4 | x4 | x4 | x4 | x4 | x4 | x4 | x4 | x4 | x4 | x4 | x4 | x4 | x4 |1 %137
 x4 :|2 x3 |][M:3/8] x3 | x3 | x3 | x3 | x3 | x3 | x3 | x3 | x3 | x3 | x3 | x3 | x3 | x3 | x3 | %154
 x3 | !3!x/!3!G,/ !3!G,2 | !2!x/!3!G,/ !3!G,2 | x3 | x3 | !3!x/!3!G,/ !3!G,2 | %160
 !2!x/!4!E,/!3!G,/!2!C/ x | !2!x/!5!x/!3!A,/!2!C/ x | x3 | !3!x/!3!G,/ !3!G,2 | %164
 !2!x/!3!G,/ !3!G,2 | x3 | x3 | !3!x/!3!G,/ !3!G,2 | !2!x/!4!E,/!3!G,/!2!C/ !2!x/!2!C/ | x3 | x3 | %171
 x3 | x3 | x3 | x3 | x3 | x3 | x3 | x3 | x3 | x3 | x3 | x3 | x3 | x3 | x3 | x3 |][K:G][M:3/4] x2 | %188
 x6 | x6 | x6 | x6 | x6 | x6 | x6 | x6 | x6 | x6 | x6 | x6 | x6 | x6 | x6 | x6 | x6 | x6 | x6 | %207
 x6 | x6 | x6 | x6 | x6 | x6 | x6 | x6 | x6 | x6 | x6 | x6 | x6 |][M:2/4] x | x4 | x4 | x4 | %224
 x3 !3!B,/>!3!G,/ | x4 | x4 | x2 !3!G,2 | x3 :: x | x4 | x4 | x4 | x4 | x4 | x !4!E,2 x | x4 | %237
 !3!A,!4!D, x2 | x4 | x4 | x4 | x4 :|[M:2/4] x4 | x4 | x4 | x4 | x4 | x4 | x4 | x4 | x4 | x4 | x4 | %253
 x4 | x4 | x4 | x4 | x4 | x4 | x4 | x4 | x4 | x4 | x4 | x4 | x4 | x4 | x4 | x4 | x4 | x4 | x4 | %272
 x4 | x4 | x4 | x4 | x4 | x4 | x4 | x4 | x4 | x4 | x4 | x4 | x4 | x4 | x4 | x4 | x4 | x4 |] %290
[M:4/4] !3!G,2 !3!G,4 !3!G,2- | !3!x2 !3!G,4 !3!G,2 | x8 | x8 | x8 | x8 | !3!A,2 !4!F,2 !3!G,4 |1 %297
 x8 :|2 x8 |: x8 | x8 | x8 | x8 | x8 | x8 | x8 |1 x8 :|2 x8 ||[M:6/8] x3 | x6 | x6 | x6 | x6 | x6 | %314
 x6 | x6 | x3 :: x3 | x6 | x6 | x6 | x6 | x3 !5!x!2!B,!3!A, | !3!G,3- !3!x2 !2!C | %324
 x3 [!3!=A,!2!=C]3 | x3 :| x3 | x2 !2!C !2!C!3!G,!2!C | x6 | x2 !2!C !2!C!3!G,!2!C | x6 | x6 | x6 | %333
 !4!x!4!G,!2!B, !4!x!4!A,!4!D, | x6 | x6 | x6 |][M:4/4] x8 | x8 | x8 | !3!G,2 !2!B,2 x4 | x8 | x8 | %343
 x8 | x8 :: x8 | !2!C6 x2 | x8 | !3!G,2!mf! !2!B,2 x4 | %349
 x2 [!4!F,!3!A,]2 [!4!F,!3!A,]2 [!4!F,!3!A,]2 | !3!G,6 !2!B,2 | %351
 [!3!A,!2!C]4 [!3!G,!2!B,]2 [!4!F,!3!A,]2 | x8 :|[M:6/8] x | x6 | x6 | x6 | %357
 !3!G,!2!B,!3!G, !4!F,2 x | x6 | x6 | x6 | x !4!^D,!5!B,, x x |: x | x6 | x6 | !3!A,3 x2 !3!G,- | %366
 !3!x!3!^A,!2!B, !4!F,2 x | !3!G,3- !3!x!3!A,!3!B, | !6!x[!3!B,!2!D][!3!B,!2!D] !3!C2 x | x6 | %370
 x !5!B,,!4!^D, x x ::[K:E] x | x6 | x6 | x6 | x6 | !4!E,3 !3!G,2 !2!E | x6 | x6 | x5 :: x | %381
 x [!3!A,!2!B,]2 x [!3!A,!2!B,]2 | x [!3!G,!2!B,]2 x x2 | x [!3!A,!2!B,]2 x [!3!A,!2!B,]2 | %384
 x [!3!G,!2!B,]2 x x2 | x6 | x6 | x6 | x !4!D,!5!B,, x x :|[K:G][M:3/8] x3 | x3 | x3 | x3 | x3 | %394
 x3 | x3 | x3 :: x3 | x3 | x3 | x3 | x3 | x3 | x3 |1 x3 :|2 x3 |:[K:E] x3 | x3 | x3 | x3 | x3 | %411
 x3 | x3 | x3 :|[K:D][M:3/4] x2 | x6 | x6 | x6 | x6 | x6 | x6 | x6 | x6 | x6 | x6 | x2 !3!^G,4 | %426
 !3!A,4 x2 | x6 | x2 !3!A,4 | x6 | x6 | x6 | x6 | x6 | x6 | x6 | x6 | x6 | x6 | x6 | x6 | x6 | %442
 x6 |][M:2/4] x | x4 | x4 | x4 | x4 | x4 | x4 | x4 | x3 :| x | x4 | x4 | x4 | x4 | x4 | x4 | x4 | %460
 x4 | x4 | x4 | x4 | x4 | x4 | x4 | x4 | x4 | x4 | x4 | x4 | x4 | x4 | x4 | x4 | x4 |][M:2/4] x | %478
 x4 | x4 | x4 | x4 | x4 | x4 | x4 | x3 :: x | x4 | x4 | x4 | x4 | x4 | x4 | x4 | x4 | x4 | x4 | %497
 x4 | x4 | x4 | x4 | x4 | x4 | !5!x!3!A, !2!D!2!C | x4 | x [!4!F,!3!A,] [!4!E,!3!G,]2 | x4 :| %507
[K:F][M:3/4] x6 | x6 | x6 | x6 | !3!A,2- !3!x2 !3!G,2 | x6 | x6 | x6 | x6 | x6 | x6 | x6 | %519
 !3!A,2 !3!A,2 !3!G,2 | x6 | x6 | x6 | x6 | x6 | x6 | x6 | x6 | x6 | x6 | x6 | x6 | x6 | x6 | x6 | %535
 x6 | x6 | x6 | x6 |][K:D][M:4/4] x8 | x8 | x8 | x8 | x8 | x8 | x8 | x8 :: x8 | x8 | x8 | x8 | %551
 !2!F2 !2!F>!3!D !4!A,2 !2!F2 | x8 | x8 | x8 | x8 | x8 | x8 | x8 | x8 | x8 | x8 | x8 :|[M:6/8] x6 | %564
 x6 | x6 | x6 | x6 | x6 | x6 | x6 :| x6 | x6 | x6 | !2!C6 | x6 | x6 | x6 | x6 || x6 | x6 | x6 | %582
 x6 | x6 | x6 | x6 | x6 |: x6 | x6 | !2!=C3 !2!B,3 | x6 | x6 | x6 | x6 | x6 :|[K:A][M:2/4] x2 | %596
 x4 | x4 | x4 | x4 | x4 | x4 | x4 | x2 :: x2 | x4 | x4 | x4 | !3!G,!4!E, x2 | x4 | x4 | x4 | x4 | %613
 x4 | x4 | x4 | x4 | x4 | !2!D2 !2!C2 | x4 | x2 :| x2 |][M:3/4] !2!C4 !2!B,2 | !2!D2 !2!C2 !3!A,2 | %624
 !4!F,4 !3!G,2 | x6 | !2!C4 !2!B,2 | x6 | !3!^^F,2 !6!x!3!G, !6!x!3!=A, | %629
 x !4!^D, !4!E,!4!E, !4!E,!4!E, | !2!C4 !3!^A,2 | x !4!E, !4!E,!4!E, !4!E,!4!E, | %632
 x !4!E, !4!E,!4!E, !4!E,!4!E, | x !4!E, !4!E,!4!E, !4!E,!4!E, | x !4!E, !4!E,!4!E, !4!E,!4!E, | %635
 x !4!E, !4!E,!4!E, !4!E,!4!E, | !3!A,4 !3!A,2 | x !4!E, !4!^D,!4!=D, !5!C,!5!B,, | !2!C4 !2!B,2 | %639
 !2!D2 (3!2!C!3!A,!3!A, (3!3!A,!3!G,!3!=G, | !4!F,4 !3!G,2 | x6 | x4 (3!2!x!3!C!2!E | x6 | x6 | %645
 x6 |][K:C][M:2/4] x4 | x4 | x4 | x4 | x4 | x4 | x4 | x4 | x4 | x4 | x4 | x4 | x4 | [!3!A,!2!C]4 | %660
 x2 [!4!^F,!3!A,]2 | x4 |: !3!G,!2!C !2!C!2!C | !3!G,/(!2!^C/!2!D/)!2!B,/!mp! !3!G,!3!G,- | %664
 !3!x!2!C !2!C!2!C | !3!G,/(!2!^C/!2!D/)!2!B,/!mp! !3!G,!3!G,- | !3!x x x2 | x4 | x4 | x4 | x4 | %671
 x4 | x4 | x4 | !2!^C2 !2!D!2!E | x4 | x4 | x4 :|[M:6/8] x6 | x6 | x6 | x6 | x6 | x6 | x6 | x6 :| %686
 x6 | x6 | x6 | x3 !4!E,2 !3!G, | x6 | x6 | x6 | x6 | x6 | x6 | x6 | x6 | x6 | x6 | x6 | x6 |: %702
[K:A] x6 | x6 | x6 | x6 | !2!x!2!B,!1!E !2!x!2!B,!1!E | x6 | x6 | x6 :|[M:3/8] x | x3 | x3 | %713
 !3!D2 x | x3 | x3 | x3 | !3!D2 !3!D | x2 :: x | x [!2!B,!3!D]2 | !3!C2 x | x [!2!B,!3!D]2 | x3 | %724
 x3 | x3 | x3 | x2 :: x | x3 | x3 | x3 | x3 | x3 | x3 | x3 | x2 :| x | x !3!E2 | x !3!D2 | x3 | %741
 !3!C!3!D x | x !3!D2 | x !3!C2 | x3 | (!2!D!2!C) x | x3 | [!3!B,!2!E]2 x | x3 | x3 | %750
 x [!4!G,!2!B,]2 | x [!4!G,!3!D]2 | x [!4!G,!3!D][!4!G,!3!D] | x3 | x3 | x3 | x3 | x3 | x3 | x3 | %760
 x3 | x2 || x | x [!2!B,!3!D]2 | !3!C2 x | x [!2!B,!3!D]2 | x3 | x3 | x3 | x3 | x3 |] %771
V:4
 x2 | x8 | x8 | x8 | x8 | x8 | x8 | x8 | x8 | x8 | x8 | x8 | x8 | x8 | x8 | x8 | x8 | x8 | x8 | %19
 x8 | x8 | x8 | x8 | x8 | x8 | x8 | x8 | x8 | x8 | x8 | x8 | x8 | x8 |][M:2/4] x4 | x4 | x4 | x4 | %37
 x4 | x4 | x4 | x4 | x4 | x4 | x4 | x4 | x4 | x4 | x4 | x4 || x4 | x4 | x4 | x4 | x4 | x4 | x4 | %56
 x4 | x4 | x4 | x4 | x4 | x4 | x4 | x4 | x4 | x4 | x4 | x4 | x4 | x4 | x4 | x4 | x4 |][M:3/4] x6 | %74
 x6 | x6 | x6 | x6 | x6 | x6 | x6 | x6 | x6 | x6 | x6 | x6 | x6 | x6 | x6 | x6 | x6 | x6 | x6 | %93
 x6 | x6 | x6 | x6 | x6 | x6 | x6 | x6 | x6 | x6 | x6 | x6 | x6 | x6 | x6 | x6 | x6 | x6 | x6 | %112
 x6 |][M:2/4] x | x4 | x4 | x4 | x4 | x4 | x4 | x4 | x4 :: x4 | x4 | x4 | x4 | x4 | x4 | x4 | x4 | %130
 x4 | x4 | x4 | x4 | x4 | x4 | x4 |1 x4 :|2 x3 |][M:3/8] x3 | x3 | x3 | x3 | x3 | x3 | x3 | x3 | %147
 x3 | x3 | x3 | x3 | x3 | x3 | x3 | x3 | x3 | x3 | x3 | x3 | x3 | x3 | x3 | x3 | x3 | x3 | x3 | %166
 x3 | x3 | x3 | x3 | x3 | x3 | x3 | x3 | x3 | x3 | x3 | x3 | x3 | x3 | x3 | x3 | x3 | x3 | x3 | %185
 x3 | x3 |][K:G][M:3/4] x2 | x6 | x6 | x6 | x6 | x6 | x6 | x6 | x6 | x6 | x6 | x6 | x6 | x6 | x6 | %202
 x6 | x6 | x6 | x6 | x6 | x6 | x6 | x6 | x6 | x6 | x6 | x6 | x6 | x6 | x6 | x6 | x6 | x6 |] %220
[M:2/4] x | x4 | x4 | x4 | x4 | x4 | x4 | x4 | x3 :: x | x4 | x4 | x4 | x4 | x4 | x4 | x4 | x4 | %238
 x4 | x4 | x4 | x4 :|[M:2/4] x4 | x4 | x4 | x4 | x4 | x4 | x4 | x4 | x4 | x4 | x4 | x4 | x4 | x4 | %256
 x4 | x4 | x4 | x4 | x4 | x4 | x4 | x4 | x4 | x4 | x4 | x4 | x4 | x4 | x4 | x4 | x4 | x4 | x4 | %275
 x4 | x4 | x4 | x4 | x4 | x4 | x4 | x4 | x4 | x4 | x4 | x4 | x4 | x4 | x4 |][M:4/4] x8 | x8 | x8 | %293
 x8 | x8 | x8 | x8 |1 x8 :|2 x8 |: x8 | x8 | x8 | x8 | x8 | x8 | x8 |1 x8 :|2 x8 ||[M:6/8] x3 | %309
 x6 | x6 | x6 | x6 | x6 | x6 | x6 | x3 :: x3 | x6 | x6 | x6 | x6 | x6 | x6 | x6 | x3 :| x3 | x6 | %328
 x6 | x6 | x6 | x6 | x6 | x6 | x6 | x6 | x6 |][M:4/4] x8 | x8 | x8 | x8 | x8 | x8 | x8 | x8 :: x8 | %346
 x8 | x8 | x8 | x8 | x8 | x8 | x8 :|[M:6/8] x | x6 | x6 | x6 | x6 | x6 | x6 | x6 | x5 |: x | x6 | %364
 x6 | x6 | x6 | x6 | x6 | x6 | x5 ::[K:E] x | x6 | x6 | x6 | x6 | x6 | x6 | x6 | x5 :: x | x6 | %382
 x6 | x6 | x6 | x6 | x6 | x6 | x5 :|[K:G][M:3/8] x3 | x3 | x3 | x3 | x3 | x3 | x3 | x3 :: x3 | x3 | %399
 x3 | x3 | x3 | x3 | x3 |1 x3 :|2 x3 |:[K:E] x3 | x3 | x3 | x3 | x3 | x3 | x3 | x3 :| %414
[K:D][M:3/4] x2 | x6 | x6 | x6 | x6 | x6 | x6 | x6 | x6 | x6 | x6 | x6 | x6 | x6 | x6 | x6 | x6 | %431
 x6 | x6 | x6 | x6 | x6 | x6 | x6 | x6 | x6 | x6 | x6 | x6 |][M:2/4] x | x4 | x4 | x4 | x4 | x4 | %449
 x4 | x4 | x3 :| x | x4 | x4 | x4 | x4 | x4 | x4 | x4 | x4 | x4 | x4 | x4 | x4 | x4 | x4 | x4 | %468
 x4 | x4 | x4 | x4 | x4 | x4 | x4 | x4 | x4 |][M:2/4] x | x4 | x4 | x4 | x4 | x4 | x4 | x4 | x3 :: %486
 x | x4 | x4 | x4 | x4 | x4 | x4 | x4 | x4 | x4 | x4 | x4 | x4 | x4 | x4 | x4 | x4 | x4 | x4 | x4 | %506
 x4 :|[K:F][M:3/4] x6 | x6 | x6 | x6 | x6 | x6 | x6 | x6 | x6 | x6 | x6 | x6 | x6 | x6 | x6 | x6 | %523
 x6 | x6 | x6 | x6 | x6 | x6 | x6 | x6 | x6 | x6 | x6 | x6 | x6 | x6 | x6 | x6 |][K:D][M:4/4] x8 | %540
 x8 | x8 | x8 | x8 | x8 | x8 | x8 :: x8 | x8 | x8 | x8 | x8 | x8 | x8 | x8 | x8 | x8 | x8 | x8 | %559
 x8 | x8 | x8 | x8 :|[M:6/8] x6 | x6 | x6 | x6 | x6 | x6 | x6 | x6 :| x6 | x6 | x6 | x6 | x6 | x6 | %577
 x6 | x6 || x6 | x6 | x6 | x6 | x6 | x6 | x6 | x6 |: x6 | x6 | x6 | x6 | x6 | x6 | x6 | x6 :| %595
[K:A][M:2/4] x2 | x4 | x4 | x4 | x4 | x4 | x4 | x4 | x2 :: x2 | x4 | x4 | x4 | x4 | x4 | x4 | x4 | %612
 x4 | x4 | x4 | x4 | x4 | x4 | x4 | x4 | x2 :| x2 |][M:3/4] x6 | x6 | x6 | x6 | x6 | x6 | x6 | x6 | %630
 x !4!E, !4!E,!4!E, !4!E,!4!E, | x6 | x6 | x6 | x6 | x6 | x !4!E, !4!E,!4!E, !4!E,!4!E, | x6 | x6 | %639
 x6 | x6 | x6 | x6 | x6 | x6 | x6 |][K:C][M:2/4] x4 | x4 | x4 | x4 | x4 | x4 | x4 | x4 | x4 | x4 | %656
 x4 | x4 | x4 | x4 | x4 | x4 |: x4 | x4 | x4 | x4 | x4 | x4 | x4 | x4 | x4 | x4 | x4 | x4 | x4 | %675
 x4 | x4 | x4 :|[M:6/8] x6 | x6 | x6 | x6 | x6 | x6 | x6 | x6 :| x6 | x6 | x6 | x6 | x6 | x6 | x6 | %693
 x6 | x6 | x6 | x6 | x6 | x6 | x6 | x6 | x6 |:[K:A] x6 | x6 | x6 | x6 | x6 | x6 | x6 | x6 :| %710
[M:3/8] x | x3 | x3 | x3 | x3 | x3 | x3 | x3 | x2 :: x | x3 | x3 | x3 | x3 | x3 | x3 | x3 | x2 :: %728
 x | x3 | x3 | x3 | x3 | x3 | x3 | x3 | x2 :| x | x3 | x3 | x3 | x3 | x3 | x3 | x3 | x3 | x3 | x3 | %748
 x3 | x3 | x3 | x3 | x3 | x3 | x3 | x3 | x3 | x3 | x3 | x3 | x3 | x2 || x | x3 | x3 | x3 | x3 | %767
 x3 | x3 | x3 | x3 |] %771

